; G-Code generated from G-Illustrator developed by Hiroya Tanaka
; gcodenoretfin5.gco
; 
G90
M82
M106 S204
M140 S0
M104 S200 T0
M109 S200 T0
G28 ; home all axes
G1 Z334 F3000 ; lift nozzle
M42 P8 S255
G92 E0

;  layer: 1/10
; 
; 
;  layer: 1  path: 108/108
; 
;  layer: 1  path: 108 points: 0/1
T0
G1 X0.00 Y0.00 Z0.2 F1200
; 
;  layer: 1  path: 108 points: 1/1
T0
G1 X17.26 Y0.00 Z0.2 E2.8723 F1200
; 
;  layer: 1  path: 107/108
; 
;  layer: 1  path: 107 points: 0/1
T0
G1 X115.00 Y0.00 Z0.2 F1200
; 
;  layer: 1  path: 107 points: 1/1
T0
G1 X97.74 Y0.00 Z0.2 E6.2427 F1200
; 
;  layer: 1  path: 106/108
; 
;  layer: 1  path: 106 points: 0/1
T0
G1 X0.00 Y0.40 Z0.2 F1200
; 
;  layer: 1  path: 106 points: 1/1
T0
G1 X18.34 Y0.40 Z0.2 E9.1039 F1200
; 
;  layer: 1  path: 105/108
; 
;  layer: 1  path: 105 points: 0/1
T0
G1 X96.66 Y0.40 Z0.2 F1200
; 
;  layer: 1  path: 105 points: 1/1
T0
G1 X115.00 Y0.40 Z0.2 E12.9481 F1200
; 
;  layer: 1  path: 104/108
; 
;  layer: 1  path: 104 points: 0/1
T0
G1 X-0.00 Y0.80 Z0.2 F1200
; 
;  layer: 1  path: 104 points: 1/1
T0
G1 X19.42 Y0.80 Z0.2 E15.7987 F1200
; 
;  layer: 1  path: 103/108
; 
;  layer: 1  path: 103 points: 0/1
T0
G1 X95.58 Y0.80 Z0.2 F1200
; 
;  layer: 1  path: 103 points: 1/1
T0
G1 X115.00 Y0.80 Z0.2 E19.6385 F1200
; 
;  layer: 1  path: 102/108
; 
;  layer: 1  path: 102 points: 0/1
T0
G1 X-0.00 Y1.20 Z0.2 F1200
; 
;  layer: 1  path: 102 points: 1/1
T0
G1 X20.50 Y1.20 Z0.2 E22.4790 F1200
; 
;  layer: 1  path: 101/108
; 
;  layer: 1  path: 101 points: 0/1
T0
G1 X94.50 Y1.20 Z0.2 F1200
; 
;  layer: 1  path: 101 points: 1/1
T0
G1 X115.00 Y1.20 Z0.2 E26.3145 F1200
; 
;  layer: 1  path: 100/108
; 
;  layer: 1  path: 100 points: 0/1
T0
G1 X-0.00 Y1.60 Z0.2 F1200
; 
;  layer: 1  path: 100 points: 1/1
T0
G1 X21.58 Y1.60 Z0.2 E29.1455 F1200
; 
;  layer: 1  path: 99/108
; 
;  layer: 1  path: 99 points: 0/1
T0
G1 X93.42 Y1.60 Z0.2 F1200
; 
;  layer: 1  path: 99 points: 1/1
T0
G1 X115.00 Y1.60 Z0.2 E32.9767 F1200
; 
;  layer: 1  path: 98/108
; 
;  layer: 1  path: 98 points: 0/1
T0
G1 X-0.00 Y2.00 Z0.2 F1200
; 
;  layer: 1  path: 98 points: 1/1
T0
G1 X22.66 Y2.00 Z0.2 E35.7988 F1200
; 
;  layer: 1  path: 97/108
; 
;  layer: 1  path: 97 points: 0/1
T0
G1 X92.34 Y2.00 Z0.2 F1200
; 
;  layer: 1  path: 97 points: 1/1
T0
G1 X115.00 Y2.00 Z0.2 E39.6259 F1200
; 
;  layer: 1  path: 96/108
; 
;  layer: 1  path: 96 points: 0/1
T0
G1 X-0.00 Y2.40 Z0.2 F1200
; 
;  layer: 1  path: 96 points: 1/1
T0
G1 X23.74 Y2.40 Z0.2 E42.4394 F1200
; 
;  layer: 1  path: 95/108
; 
;  layer: 1  path: 95 points: 0/1
T0
G1 X91.26 Y2.40 Z0.2 F1200
; 
;  layer: 1  path: 95 points: 1/1
T0
G1 X115.00 Y2.40 Z0.2 E46.2626 F1200
; 
;  layer: 1  path: 94/108
; 
;  layer: 1  path: 94 points: 0/1
T0
G1 X-0.00 Y2.80 Z0.2 F1200
; 
;  layer: 1  path: 94 points: 1/1
T0
G1 X24.82 Y2.80 Z0.2 E49.0683 F1200
; 
;  layer: 1  path: 93/108
; 
;  layer: 1  path: 93 points: 0/1
T0
G1 X90.18 Y2.80 Z0.2 F1200
; 
;  layer: 1  path: 93 points: 1/1
T0
G1 X115.00 Y2.80 Z0.2 E52.8877 F1200
; 
;  layer: 1  path: 92/108
; 
;  layer: 1  path: 92 points: 0/1
T0
G1 X-0.00 Y3.20 Z0.2 F1200
; 
;  layer: 1  path: 92 points: 1/1
T0
G1 X25.89 Y3.20 Z0.2 E55.6861 F1200
; 
;  layer: 1  path: 91/108
; 
;  layer: 1  path: 91 points: 0/1
T0
G1 X89.11 Y3.20 Z0.2 F1200
; 
;  layer: 1  path: 91 points: 1/1
T0
G1 X115.00 Y3.20 Z0.2 E59.5016 F1200
; 
;  layer: 1  path: 90/108
; 
;  layer: 1  path: 90 points: 0/1
T0
G1 X0.00 Y3.60 Z0.2 F1200
; 
;  layer: 1  path: 90 points: 1/1
T0
G1 X26.97 Y3.60 Z0.2 E62.2932 F1200
; 
;  layer: 1  path: 89/108
; 
;  layer: 1  path: 89 points: 0/1
T0
G1 X88.03 Y3.60 Z0.2 F1200
; 
;  layer: 1  path: 89 points: 1/1
T0
G1 X115.00 Y3.60 Z0.2 E66.1052 F1200
; 
;  layer: 1  path: 88/108
; 
;  layer: 1  path: 88 points: 0/1
T0
G1 X-0.00 Y4.00 Z0.2 F1200
; 
;  layer: 1  path: 88 points: 1/1
T0
G1 X28.05 Y4.00 Z0.2 E68.8906 F1200
; 
;  layer: 1  path: 87/108
; 
;  layer: 1  path: 87 points: 0/0
T0
G1 X27.00 Y3.80 Z0.2 F1200
; 
;  layer: 1  path: 86/108
; 
;  layer: 1  path: 86 points: 0/1
T0
G1 X86.95 Y4.00 Z0.2 F1200
; 
;  layer: 1  path: 86 points: 1/1
T0
G1 X115.00 Y4.00 Z0.2 E72.6991 F1200
; 
;  layer: 1  path: 85/108
; 
;  layer: 1  path: 85 points: 0/1
T0
G1 X-0.00 Y4.40 Z0.2 F1200
; 
;  layer: 1  path: 85 points: 1/1
T0
G1 X29.13 Y4.40 Z0.2 E75.4788 F1200
; 
;  layer: 1  path: 84/108
; 
;  layer: 1  path: 84 points: 0/1
T0
G1 X85.87 Y4.40 Z0.2 F1200
; 
;  layer: 1  path: 84 points: 1/1
T0
G1 X115.00 Y4.40 Z0.2 E79.2840 F1200
; 
;  layer: 1  path: 83/108
; 
;  layer: 1  path: 83 points: 0/1
T0
G1 X-0.00 Y4.80 Z0.2 F1200
; 
;  layer: 1  path: 83 points: 1/1
T0
G1 X30.21 Y4.80 Z0.2 E82.0586 F1200
; 
;  layer: 1  path: 82/108
; 
;  layer: 1  path: 82 points: 0/1
T0
G1 X84.79 Y4.80 Z0.2 F1200
; 
;  layer: 1  path: 82 points: 1/1
T0
G1 X115.00 Y4.80 Z0.2 E85.8606 F1200
; 
;  layer: 1  path: 81/108
; 
;  layer: 1  path: 81 points: 0/1
T0
G1 X-0.00 Y5.20 Z0.2 F1200
; 
;  layer: 1  path: 81 points: 1/1
T0
G1 X31.29 Y5.20 Z0.2 E88.6307 F1200
; 
;  layer: 1  path: 80/108
; 
;  layer: 1  path: 80 points: 0/0
T0
G1 X-0.00 Y5.93 Z0.2 F1200
; 
;  layer: 1  path: 79/108
; 
;  layer: 1  path: 79 points: 0/1
T0
G1 X83.71 Y5.20 Z0.2 F1200
; 
;  layer: 1  path: 79 points: 1/1
T0
G1 X115.00 Y5.20 Z0.2 E92.4296 F1200
; 
;  layer: 1  path: 78/108
; 
;  layer: 1  path: 78 points: 0/1
T0
G1 X-0.00 Y5.60 Z0.2 F1200
; 
;  layer: 1  path: 78 points: 1/1
T0
G1 X32.37 Y5.60 Z0.2 E95.1957 F1200
; 
;  layer: 1  path: 77/108
; 
;  layer: 1  path: 77 points: 0/1
T0
G1 X82.63 Y5.60 Z0.2 F1200
; 
;  layer: 1  path: 77 points: 1/1
T0
G1 X115.00 Y5.60 Z0.2 E98.9917 F1200
; 
;  layer: 1  path: 76/108
; 
;  layer: 1  path: 76 points: 0/1
T0
G1 X-0.00 Y6.00 Z0.2 F1200
; 
;  layer: 1  path: 76 points: 1/1
T0
G1 X33.45 Y6.00 Z0.2 E101.7545 F1200
; 
;  layer: 1  path: 75/108
; 
;  layer: 1  path: 75 points: 0/1
T0
G1 X81.55 Y6.00 Z0.2 F1200
; 
;  layer: 1  path: 75 points: 1/1
T0
G1 X115.00 Y6.00 Z0.2 E105.5476 F1200
; 
;  layer: 1  path: 74/108
; 
;  layer: 1  path: 74 points: 0/1
T0
G1 X-0.00 Y6.40 Z0.2 F1200
; 
;  layer: 1  path: 74 points: 1/1
T0
G1 X34.53 Y6.40 Z0.2 E108.3076 F1200
; 
;  layer: 1  path: 73/108
; 
;  layer: 1  path: 73 points: 0/1
T0
G1 X80.47 Y6.40 Z0.2 F1200
; 
;  layer: 1  path: 73 points: 1/1
T0
G1 X115.00 Y6.40 Z0.2 E112.0980 F1200
; 
;  layer: 1  path: 72/108
; 
;  layer: 1  path: 72 points: 0/1
T0
G1 X-0.00 Y6.80 Z0.2 F1200
; 
;  layer: 1  path: 72 points: 1/1
T0
G1 X35.61 Y6.80 Z0.2 E114.8558 F1200
; 
;  layer: 1  path: 71/108
; 
;  layer: 1  path: 71 points: 0/1
T0
G1 X79.39 Y6.80 Z0.2 F1200
; 
;  layer: 1  path: 71 points: 1/1
T0
G1 X115.00 Y6.80 Z0.2 E118.6436 F1200
; 
;  layer: 1  path: 70/108
; 
;  layer: 1  path: 70 points: 0/1
T0
G1 X-0.00 Y7.20 Z0.2 F1200
; 
;  layer: 1  path: 70 points: 1/1
T0
G1 X36.68 Y7.20 Z0.2 E121.3998 F1200
; 
;  layer: 1  path: 69/108
; 
;  layer: 1  path: 69 points: 0/1
T0
G1 X78.32 Y7.20 Z0.2 F1200
; 
;  layer: 1  path: 69 points: 1/1
T0
G1 X115.00 Y7.20 Z0.2 E125.1850 F1200
; 
;  layer: 1  path: 68/108
; 
;  layer: 1  path: 68 points: 0/1
T0
G1 X-0.00 Y7.60 Z0.2 F1200
; 
;  layer: 1  path: 68 points: 1/1
T0
G1 X37.76 Y7.60 Z0.2 E127.9402 F1200
; 
;  layer: 1  path: 67/108
; 
;  layer: 1  path: 67 points: 0/1
T0
G1 X77.24 Y7.60 Z0.2 F1200
; 
;  layer: 1  path: 67 points: 1/1
T0
G1 X115.00 Y7.60 Z0.2 E131.7231 F1200
; 
;  layer: 1  path: 66/108
; 
;  layer: 1  path: 66 points: 0/1
T0
G1 X-0.00 Y8.00 Z0.2 F1200
; 
;  layer: 1  path: 66 points: 1/1
T0
G1 X38.84 Y8.00 Z0.2 E134.4778 F1200
; 
;  layer: 1  path: 65/108
; 
;  layer: 1  path: 65 points: 0/1
T0
G1 X76.16 Y8.00 Z0.2 F1200
; 
;  layer: 1  path: 65 points: 1/1
T0
G1 X115.00 Y8.00 Z0.2 E138.2585 F1200
; 
;  layer: 1  path: 64/108
; 
;  layer: 1  path: 64 points: 0/1
T0
G1 X-0.00 Y8.40 Z0.2 F1200
; 
;  layer: 1  path: 64 points: 1/1
T0
G1 X39.92 Y8.40 Z0.2 E141.0134 F1200
; 
;  layer: 1  path: 63/108
; 
;  layer: 1  path: 63 points: 0/1
T0
G1 X75.08 Y8.40 Z0.2 F1200
; 
;  layer: 1  path: 63 points: 1/1
T0
G1 X115.00 Y8.40 Z0.2 E144.7920 F1200
; 
;  layer: 1  path: 62/108
; 
;  layer: 1  path: 62 points: 0/1
T0
G1 X-0.00 Y8.80 Z0.2 F1200
; 
;  layer: 1  path: 62 points: 1/1
T0
G1 X41.00 Y8.80 Z0.2 E147.5476 F1200
; 
;  layer: 1  path: 61/108
; 
;  layer: 1  path: 61 points: 0/1
T0
G1 X74.00 Y8.80 Z0.2 F1200
; 
;  layer: 1  path: 61 points: 1/1
T0
G1 X115.00 Y8.80 Z0.2 E151.3243 F1200
; 
;  layer: 1  path: 60/108
; 
;  layer: 1  path: 60 points: 0/1
T0
G1 X-0.00 Y9.20 Z0.2 F1200
; 
;  layer: 1  path: 60 points: 1/1
T0
G1 X115.00 Y9.20 Z0.2 E155.7907 F1200
; 
;  layer: 1  path: 59/108
; 
;  layer: 1  path: 59 points: 0/1
T0
G1 X-0.00 Y9.60 Z0.2 F1200
; 
;  layer: 1  path: 59 points: 1/1
T0
G1 X115.00 Y9.60 Z0.2 E160.2474 F1200
; 
;  layer: 1  path: 58/108
; 
;  layer: 1  path: 58 points: 0/1
T0
G1 X-0.00 Y10.00 Z0.2 F1200
; 
;  layer: 1  path: 58 points: 1/1
T0
G1 X115.00 Y10.00 Z0.2 E164.6945 F1200
; 
;  layer: 1  path: 57/108
; 
;  layer: 1  path: 57 points: 0/1
T0
G1 X-0.00 Y10.40 Z0.2 F1200
; 
;  layer: 1  path: 57 points: 1/1
T0
G1 X115.00 Y10.40 Z0.2 E169.1320 F1200
; 
;  layer: 1  path: 56/108
; 
;  layer: 1  path: 56 points: 0/1
T0
G1 X-0.00 Y10.80 Z0.2 F1200
; 
;  layer: 1  path: 56 points: 1/1
T0
G1 X115.00 Y10.80 Z0.2 E173.5600 F1200
; 
;  layer: 1  path: 55/108
; 
;  layer: 1  path: 55 points: 0/1
T0
G1 X-0.00 Y11.20 Z0.2 F1200
; 
;  layer: 1  path: 55 points: 1/1
T0
G1 X115.00 Y11.20 Z0.2 E177.9784 F1200
; 
;  layer: 1  path: 54/108
; 
;  layer: 1  path: 54 points: 0/1
T0
G1 X-0.00 Y11.60 Z0.2 F1200
; 
;  layer: 1  path: 54 points: 1/1
T0
G1 X115.00 Y11.60 Z0.2 E182.3874 F1200
; 
;  layer: 1  path: 53/108
; 
;  layer: 1  path: 53 points: 0/1
T0
G1 X-0.00 Y12.00 Z0.2 F1200
; 
;  layer: 1  path: 53 points: 1/1
T0
G1 X115.00 Y12.00 Z0.2 E186.7871 F1200
; 
;  layer: 1  path: 52/108
; 
;  layer: 1  path: 52 points: 0/1
T0
G1 X-0.00 Y12.40 Z0.2 F1200
; 
;  layer: 1  path: 52 points: 1/1
T0
G1 X115.00 Y12.40 Z0.2 E191.1774 F1200
; 
;  layer: 1  path: 51/108
; 
;  layer: 1  path: 51 points: 0/1
T0
G1 X-0.00 Y12.80 Z0.2 F1200
; 
;  layer: 1  path: 51 points: 1/1
T0
G1 X115.00 Y12.80 Z0.2 E195.5584 F1200
; 
;  layer: 1  path: 50/108
; 
;  layer: 1  path: 50 points: 0/1
T0
G1 X-0.00 Y13.20 Z0.2 F1200
; 
;  layer: 1  path: 50 points: 1/1
T0
G1 X115.00 Y13.20 Z0.2 E199.9302 F1200
; 
;  layer: 1  path: 49/108
; 
;  layer: 1  path: 49 points: 0/1
T0
G1 X-0.00 Y13.60 Z0.2 F1200
; 
;  layer: 1  path: 49 points: 1/1
T0
G1 X115.00 Y13.60 Z0.2 E204.2928 F1200
; 
;  layer: 1  path: 48/108
; 
;  layer: 1  path: 48 points: 0/1
T0
G1 X-0.00 Y14.00 Z0.2 F1200
; 
;  layer: 1  path: 48 points: 1/1
T0
G1 X115.00 Y14.00 Z0.2 E208.6464 F1200
; 
;  layer: 1  path: 47/108
; 
;  layer: 1  path: 47 points: 0/1
T0
G1 X-0.00 Y14.40 Z0.2 F1200
; 
;  layer: 1  path: 47 points: 1/1
T0
G1 X115.00 Y14.40 Z0.2 E212.9908 F1200
; 
;  layer: 1  path: 46/108
; 
;  layer: 1  path: 46 points: 0/1
T0
G1 X-0.00 Y14.80 Z0.2 F1200
; 
;  layer: 1  path: 46 points: 1/1
T0
G1 X115.00 Y14.80 Z0.2 E217.3263 F1200
; 
;  layer: 1  path: 45/108
; 
;  layer: 1  path: 45 points: 0/1
T0
G1 X-0.00 Y15.20 Z0.2 F1200
; 
;  layer: 1  path: 45 points: 1/1
T0
G1 X41.00 Y15.20 Z0.2 E219.8315 F1200
; 
;  layer: 1  path: 44/108
; 
;  layer: 1  path: 44 points: 0/1
T0
G1 X74.00 Y15.20 Z0.2 F1200
; 
;  layer: 1  path: 44 points: 1/1
T0
G1 X115.00 Y15.20 Z0.2 E223.4296 F1200
; 
;  layer: 1  path: 43/108
; 
;  layer: 1  path: 43 points: 0/1
T0
G1 X-0.00 Y15.60 Z0.2 F1200
; 
;  layer: 1  path: 43 points: 1/1
T0
G1 X39.92 Y15.60 Z0.2 E225.9009 F1200
; 
;  layer: 1  path: 42/108
; 
;  layer: 1  path: 42 points: 0/1
T0
G1 X75.08 Y15.60 Z0.2 F1200
; 
;  layer: 1  path: 42 points: 1/1
T0
G1 X115.00 Y15.60 Z0.2 E229.4781 F1200
; 
;  layer: 1  path: 41/108
; 
;  layer: 1  path: 41 points: 0/1
T0
G1 X-0.00 Y16.00 Z0.2 F1200
; 
;  layer: 1  path: 41 points: 1/1
T0
G1 X38.84 Y16.00 Z0.2 E231.9157 F1200
; 
;  layer: 1  path: 40/108
; 
;  layer: 1  path: 40 points: 0/1
T0
G1 X76.16 Y16.00 Z0.2 F1200
; 
;  layer: 1  path: 40 points: 1/1
T0
G1 X115.00 Y16.00 Z0.2 E235.4720 F1200
; 
;  layer: 1  path: 39/108
; 
;  layer: 1  path: 39 points: 0/1
T0
G1 X-0.00 Y16.40 Z0.2 F1200
; 
;  layer: 1  path: 39 points: 1/1
T0
G1 X37.76 Y16.40 Z0.2 E237.8761 F1200
; 
;  layer: 1  path: 38/108
; 
;  layer: 1  path: 38 points: 0/1
T0
G1 X77.24 Y16.40 Z0.2 F1200
; 
;  layer: 1  path: 38 points: 1/1
T0
G1 X115.00 Y16.40 Z0.2 E241.4115 F1200
; 
;  layer: 1  path: 37/108
; 
;  layer: 1  path: 37 points: 0/1
T0
G1 X-0.00 Y16.80 Z0.2 F1200
; 
;  layer: 1  path: 37 points: 1/1
T0
G1 X36.68 Y16.80 Z0.2 E243.7823 F1200
; 
;  layer: 1  path: 36/108
; 
;  layer: 1  path: 36 points: 0/1
T0
G1 X78.32 Y16.80 Z0.2 F1200
; 
;  layer: 1  path: 36 points: 1/1
T0
G1 X115.00 Y16.80 Z0.2 E247.2969 F1200
; 
;  layer: 1  path: 35/108
; 
;  layer: 1  path: 35 points: 0/1
T0
G1 X-0.00 Y17.20 Z0.2 F1200
; 
;  layer: 1  path: 35 points: 1/1
T0
G1 X35.61 Y17.20 Z0.2 E249.6346 F1200
; 
;  layer: 1  path: 34/108
; 
;  layer: 1  path: 34 points: 0/1
T0
G1 X79.39 Y17.20 Z0.2 F1200
; 
;  layer: 1  path: 34 points: 1/1
T0
G1 X115.00 Y17.20 Z0.2 E253.1285 F1200
; 
;  layer: 1  path: 33/108
; 
;  layer: 1  path: 33 points: 0/1
T0
G1 X-0.00 Y17.60 Z0.2 F1200
; 
;  layer: 1  path: 33 points: 1/1
T0
G1 X34.53 Y17.60 Z0.2 E255.4334 F1200
; 
;  layer: 1  path: 32/108
; 
;  layer: 1  path: 32 points: 0/1
T0
G1 X80.47 Y17.60 Z0.2 F1200
; 
;  layer: 1  path: 32 points: 1/1
T0
G1 X115.00 Y17.60 Z0.2 E258.9064 F1200
; 
;  layer: 1  path: 31/108
; 
;  layer: 1  path: 31 points: 0/1
T0
G1 X-0.00 Y18.00 Z0.2 F1200
; 
;  layer: 1  path: 31 points: 1/1
T0
G1 X33.45 Y18.00 Z0.2 E261.1787 F1200
; 
;  layer: 1  path: 30/108
; 
;  layer: 1  path: 30 points: 0/1
T0
G1 X81.55 Y18.00 Z0.2 F1200
; 
;  layer: 1  path: 30 points: 1/1
T0
G1 X115.00 Y18.00 Z0.2 E264.6309 F1200
; 
;  layer: 1  path: 29/108
; 
;  layer: 1  path: 29 points: 0/1
T0
G1 X-0.00 Y18.40 Z0.2 F1200
; 
;  layer: 1  path: 29 points: 1/1
T0
G1 X32.37 Y18.40 Z0.2 E266.8708 F1200
; 
;  layer: 1  path: 28/108
; 
;  layer: 1  path: 28 points: 0/1
T0
G1 X82.63 Y18.40 Z0.2 F1200
; 
;  layer: 1  path: 28 points: 1/1
T0
G1 X115.00 Y18.40 Z0.2 E270.3022 F1200
; 
;  layer: 1  path: 27/108
; 
;  layer: 1  path: 27 points: 0/1
T0
G1 X-0.00 Y18.80 Z0.2 F1200
; 
;  layer: 1  path: 27 points: 1/1
T0
G1 X31.29 Y18.80 Z0.2 E272.5100 F1200
; 
;  layer: 1  path: 26/108
; 
;  layer: 1  path: 26 points: 0/1
T0
G1 X83.71 Y18.80 Z0.2 F1200
; 
;  layer: 1  path: 26 points: 1/1
T0
G1 X115.00 Y18.80 Z0.2 E275.9206 F1200
; 
;  layer: 1  path: 25/108
; 
;  layer: 1  path: 25 points: 0/1
T0
G1 X-0.00 Y19.20 Z0.2 F1200
; 
;  layer: 1  path: 25 points: 1/1
T0
G1 X30.21 Y19.20 Z0.2 E278.0966 F1200
; 
;  layer: 1  path: 24/108
; 
;  layer: 1  path: 24 points: 0/1
T0
G1 X84.79 Y19.20 Z0.2 F1200
; 
;  layer: 1  path: 24 points: 1/1
T0
G1 X115.00 Y19.20 Z0.2 E281.4865 F1200
; 
;  layer: 1  path: 23/108
; 
;  layer: 1  path: 23 points: 0/1
T0
G1 X-0.00 Y19.60 Z0.2 F1200
; 
;  layer: 1  path: 23 points: 1/1
T0
G1 X29.13 Y19.60 Z0.2 E283.6308 F1200
; 
;  layer: 1  path: 22/108
; 
;  layer: 1  path: 22 points: 0/1
T0
G1 X85.87 Y19.60 Z0.2 F1200
; 
;  layer: 1  path: 22 points: 1/1
T0
G1 X115.00 Y19.60 Z0.2 E287.0000 F1200
; 
;  layer: 1  path: 21/108
; 
;  layer: 1  path: 21 points: 0/1
T0
G1 X-0.00 Y20.00 Z0.2 F1200
; 
;  layer: 1  path: 21 points: 1/1
T0
G1 X28.05 Y20.00 Z0.2 E289.1130 F1200
; 
;  layer: 1  path: 20/108
; 
;  layer: 1  path: 20 points: 0/1
T0
G1 X86.95 Y20.00 Z0.2 F1200
; 
;  layer: 1  path: 20 points: 1/1
T0
G1 X115.00 Y20.00 Z0.2 E292.4614 F1200
; 
;  layer: 1  path: 19/108
; 
;  layer: 1  path: 19 points: 0/1
T0
G1 X-0.00 Y20.40 Z0.2 F1200
; 
;  layer: 1  path: 19 points: 1/1
T0
G1 X26.97 Y20.40 Z0.2 E294.5435 F1200
; 
;  layer: 1  path: 18/108
; 
;  layer: 1  path: 18 points: 0/1
T0
G1 X88.03 Y20.40 Z0.2 F1200
; 
;  layer: 1  path: 18 points: 1/1
T0
G1 X115.00 Y20.40 Z0.2 E297.8712 F1200
; 
;  layer: 1  path: 17/108
; 
;  layer: 1  path: 17 points: 0/1
T0
G1 X-0.00 Y20.80 Z0.2 F1200
; 
;  layer: 1  path: 17 points: 1/1
T0
G1 X25.89 Y20.80 Z0.2 E299.9227 F1200
; 
;  layer: 1  path: 16/108
; 
;  layer: 1  path: 16 points: 0/1
T0
G1 X89.11 Y20.80 Z0.2 F1200
; 
;  layer: 1  path: 16 points: 1/1
T0
G1 X115.00 Y20.80 Z0.2 E303.2297 F1200
; 
;  layer: 1  path: 15/108
; 
;  layer: 1  path: 15 points: 0/1
T0
G1 X-0.00 Y21.20 Z0.2 F1200
; 
;  layer: 1  path: 15 points: 1/1
T0
G1 X24.82 Y21.20 Z0.2 E305.2508 F1200
; 
;  layer: 1  path: 14/108
; 
;  layer: 1  path: 14 points: 0/1
T0
G1 X90.18 Y21.20 Z0.2 F1200
; 
;  layer: 1  path: 14 points: 1/1
T0
G1 X115.00 Y21.20 Z0.2 E308.5372 F1200
; 
;  layer: 1  path: 13/108
; 
;  layer: 1  path: 13 points: 0/1
T0
G1 X-0.00 Y21.60 Z0.2 F1200
; 
;  layer: 1  path: 13 points: 1/1
T0
G1 X23.74 Y21.60 Z0.2 E310.5284 F1200
; 
;  layer: 1  path: 12/108
; 
;  layer: 1  path: 12 points: 0/1
T0
G1 X91.26 Y21.60 Z0.2 F1200
; 
;  layer: 1  path: 12 points: 1/1
T0
G1 X115.00 Y21.60 Z0.2 E313.7941 F1200
; 
;  layer: 1  path: 11/108
; 
;  layer: 1  path: 11 points: 0/1
T0
G1 X-0.00 Y22.00 Z0.2 F1200
; 
;  layer: 1  path: 11 points: 1/1
T0
G1 X22.66 Y22.00 Z0.2 E315.7556 F1200
; 
;  layer: 1  path: 10/108
; 
;  layer: 1  path: 10 points: 0/1
T0
G1 X92.34 Y22.00 Z0.2 F1200
; 
;  layer: 1  path: 10 points: 1/1
T0
G1 X115.00 Y22.00 Z0.2 E319.0008 F1200
; 
;  layer: 1  path: 9/108
; 
;  layer: 1  path: 9 points: 0/1
T0
G1 X-0.00 Y22.40 Z0.2 F1200
; 
;  layer: 1  path: 9 points: 1/1
T0
G1 X21.58 Y22.40 Z0.2 E320.9331 F1200
; 
;  layer: 1  path: 8/108
; 
;  layer: 1  path: 8 points: 0/1
T0
G1 X93.42 Y22.40 Z0.2 F1200
; 
;  layer: 1  path: 8 points: 1/1
T0
G1 X115.00 Y22.40 Z0.2 E324.1575 F1200
; 
;  layer: 1  path: 7/108
; 
;  layer: 1  path: 7 points: 0/1
T0
G1 X-0.00 Y22.80 Z0.2 F1200
; 
;  layer: 1  path: 7 points: 1/1
T0
G1 X20.50 Y22.80 Z0.2 E326.0610 F1200
; 
;  layer: 1  path: 6/108
; 
;  layer: 1  path: 6 points: 0/1
T0
G1 X94.50 Y22.80 Z0.2 F1200
; 
;  layer: 1  path: 6 points: 1/1
T0
G1 X115.00 Y22.80 Z0.2 E329.2649 F1200
; 
;  layer: 1  path: 5/108
; 
;  layer: 1  path: 5 points: 0/1
T0
G1 X-0.00 Y23.20 Z0.2 F1200
; 
;  layer: 1  path: 5 points: 1/1
T0
G1 X19.42 Y23.20 Z0.2 E331.1399 F1200
; 
;  layer: 1  path: 4/108
; 
;  layer: 1  path: 4 points: 0/1
T0
G1 X95.58 Y23.20 Z0.2 F1200
; 
;  layer: 1  path: 4 points: 1/1
T0
G1 X115.00 Y23.20 Z0.2 E334.3232 F1200
; 
;  layer: 1  path: 3/108
; 
;  layer: 1  path: 3 points: 0/1
T0
G1 X-0.00 Y23.60 Z0.2 F1200
; 
;  layer: 1  path: 3 points: 1/1
T0
G1 X18.34 Y23.60 Z0.2 E336.1702 F1200
; 
;  layer: 1  path: 2/108
; 
;  layer: 1  path: 2 points: 0/1
T0
G1 X96.66 Y23.60 Z0.2 F1200
; 
;  layer: 1  path: 2 points: 1/1
T0
G1 X115.00 Y23.60 Z0.2 E339.3330 F1200
; 
;  layer: 1  path: 1/108
; 
;  layer: 1  path: 1 points: 0/1
T0
G1 X-0.00 Y24.00 Z0.2 F1200
; 
;  layer: 1  path: 1 points: 1/1
T0
G1 X17.26 Y24.00 Z0.2 E341.1525 F1200
; 
;  layer: 1  path: 0/108
; 
;  layer: 1  path: 0 points: 0/1
T0
G1 X97.74 Y24.00 Z0.2 F1200
; 
;  layer: 1  path: 0 points: 1/1
T0
G1 X115.00 Y24.00 Z0.2 E344.2947 F1200
; 
; 
;  layer: 2/10
; 
; 
;  layer: 2  path: 108/108
; 
;  layer: 2  path: 108 points: 0/1
T0
G1 X-0.00 Y-0.00 Z0.4 F1200
; 
;  layer: 2  path: 108 points: 1/1
T0
G1 X17.26 Y-0.00 Z0.4 E347.1670 F1200
; 
;  layer: 2  path: 107/108
; 
;  layer: 2  path: 107 points: 0/1
T0
G1 X115.00 Y-0.00 Z0.4 F1200
; 
;  layer: 2  path: 107 points: 1/1
T0
G1 X97.74 Y-0.00 Z0.4 E350.5373 F1200
; 
;  layer: 2  path: 106/108
; 
;  layer: 2  path: 106 points: 0/1
T0
G1 X-0.00 Y0.40 Z0.4 F1200
; 
;  layer: 2  path: 106 points: 1/1
T0
G1 X18.34 Y0.40 Z0.4 E353.3986 F1200
; 
;  layer: 2  path: 105/108
; 
;  layer: 2  path: 105 points: 0/1
T0
G1 X96.66 Y0.40 Z0.4 F1200
; 
;  layer: 2  path: 105 points: 1/1
T0
G1 X115.00 Y0.40 Z0.4 E357.2428 F1200
; 
;  layer: 2  path: 104/108
; 
;  layer: 2  path: 104 points: 0/1
T0
G1 X-0.00 Y0.80 Z0.4 F1200
; 
;  layer: 2  path: 104 points: 1/1
T0
G1 X19.42 Y0.80 Z0.4 E360.0934 F1200
; 
;  layer: 2  path: 103/108
; 
;  layer: 2  path: 103 points: 0/1
T0
G1 X95.58 Y0.80 Z0.4 F1200
; 
;  layer: 2  path: 103 points: 1/1
T0
G1 X115.00 Y0.80 Z0.4 E363.9331 F1200
; 
;  layer: 2  path: 102/108
; 
;  layer: 2  path: 102 points: 0/1
T0
G1 X-0.00 Y1.20 Z0.4 F1200
; 
;  layer: 2  path: 102 points: 1/1
T0
G1 X20.50 Y1.20 Z0.4 E366.7737 F1200
; 
;  layer: 2  path: 101/108
; 
;  layer: 2  path: 101 points: 0/1
T0
G1 X94.50 Y1.20 Z0.4 F1200
; 
;  layer: 2  path: 101 points: 1/1
T0
G1 X115.00 Y1.20 Z0.4 E370.6091 F1200
; 
;  layer: 2  path: 100/108
; 
;  layer: 2  path: 100 points: 0/1
T0
G1 X-0.00 Y1.60 Z0.4 F1200
; 
;  layer: 2  path: 100 points: 1/1
T0
G1 X21.58 Y1.60 Z0.4 E373.4402 F1200
; 
;  layer: 2  path: 99/108
; 
;  layer: 2  path: 99 points: 0/1
T0
G1 X93.42 Y1.60 Z0.4 F1200
; 
;  layer: 2  path: 99 points: 1/1
T0
G1 X115.00 Y1.60 Z0.4 E377.2714 F1200
; 
;  layer: 2  path: 98/108
; 
;  layer: 2  path: 98 points: 0/1
T0
G1 X-0.00 Y2.00 Z0.4 F1200
; 
;  layer: 2  path: 98 points: 1/1
T0
G1 X22.66 Y2.00 Z0.4 E380.0934 F1200
; 
;  layer: 2  path: 97/108
; 
;  layer: 2  path: 97 points: 0/1
T0
G1 X92.34 Y2.00 Z0.4 F1200
; 
;  layer: 2  path: 97 points: 1/1
T0
G1 X115.00 Y2.00 Z0.4 E383.9206 F1200
; 
;  layer: 2  path: 96/108
; 
;  layer: 2  path: 96 points: 0/1
T0
G1 X-0.00 Y2.40 Z0.4 F1200
; 
;  layer: 2  path: 96 points: 1/1
T0
G1 X23.74 Y2.40 Z0.4 E386.7341 F1200
; 
;  layer: 2  path: 95/108
; 
;  layer: 2  path: 95 points: 0/1
T0
G1 X91.26 Y2.40 Z0.4 F1200
; 
;  layer: 2  path: 95 points: 1/1
T0
G1 X115.00 Y2.40 Z0.4 E390.5573 F1200
; 
;  layer: 2  path: 94/108
; 
;  layer: 2  path: 94 points: 0/1
T0
G1 X-0.00 Y2.80 Z0.4 F1200
; 
;  layer: 2  path: 94 points: 1/1
T0
G1 X24.82 Y2.80 Z0.4 E393.3630 F1200
; 
;  layer: 2  path: 93/108
; 
;  layer: 2  path: 93 points: 0/1
T0
G1 X90.18 Y2.80 Z0.4 F1200
; 
;  layer: 2  path: 93 points: 1/1
T0
G1 X115.00 Y2.80 Z0.4 E397.1824 F1200
; 
;  layer: 2  path: 92/108
; 
;  layer: 2  path: 92 points: 0/1
T0
G1 X-0.00 Y3.20 Z0.4 F1200
; 
;  layer: 2  path: 92 points: 1/1
T0
G1 X25.89 Y3.20 Z0.4 E399.9807 F1200
; 
;  layer: 2  path: 91/108
; 
;  layer: 2  path: 91 points: 0/1
T0
G1 X89.11 Y3.20 Z0.4 F1200
; 
;  layer: 2  path: 91 points: 1/1
T0
G1 X115.00 Y3.20 Z0.4 E403.7963 F1200
; 
;  layer: 2  path: 90/108
; 
;  layer: 2  path: 90 points: 0/1
T0
G1 X0.00 Y3.60 Z0.4 F1200
; 
;  layer: 2  path: 90 points: 1/1
T0
G1 X26.97 Y3.60 Z0.4 E406.5879 F1200
; 
;  layer: 2  path: 89/108
; 
;  layer: 2  path: 89 points: 0/1
T0
G1 X88.03 Y3.60 Z0.4 F1200
; 
;  layer: 2  path: 89 points: 1/1
T0
G1 X115.00 Y3.60 Z0.4 E410.3999 F1200
; 
;  layer: 2  path: 88/108
; 
;  layer: 2  path: 88 points: 0/1
T0
G1 X-0.00 Y4.00 Z0.4 F1200
; 
;  layer: 2  path: 88 points: 1/1
T0
G1 X28.05 Y4.00 Z0.4 E413.1852 F1200
; 
;  layer: 2  path: 87/108
; 
;  layer: 2  path: 87 points: 0/0
T0
G1 X27.00 Y3.80 Z0.4 F1200
; 
;  layer: 2  path: 86/108
; 
;  layer: 2  path: 86 points: 0/1
T0
G1 X86.95 Y4.00 Z0.4 F1200
; 
;  layer: 2  path: 86 points: 1/1
T0
G1 X115.00 Y4.00 Z0.4 E416.9938 F1200
; 
;  layer: 2  path: 85/108
; 
;  layer: 2  path: 85 points: 0/1
T0
G1 X-0.00 Y4.40 Z0.4 F1200
; 
;  layer: 2  path: 85 points: 1/1
T0
G1 X29.13 Y4.40 Z0.4 E419.7735 F1200
; 
;  layer: 2  path: 84/108
; 
;  layer: 2  path: 84 points: 0/1
T0
G1 X85.87 Y4.40 Z0.4 F1200
; 
;  layer: 2  path: 84 points: 1/1
T0
G1 X115.00 Y4.40 Z0.4 E423.5787 F1200
; 
;  layer: 2  path: 83/108
; 
;  layer: 2  path: 83 points: 0/1
T0
G1 X-0.00 Y4.80 Z0.4 F1200
; 
;  layer: 2  path: 83 points: 1/1
T0
G1 X30.21 Y4.80 Z0.4 E426.3533 F1200
; 
;  layer: 2  path: 82/108
; 
;  layer: 2  path: 82 points: 0/1
T0
G1 X84.79 Y4.80 Z0.4 F1200
; 
;  layer: 2  path: 82 points: 1/1
T0
G1 X115.00 Y4.80 Z0.4 E430.1552 F1200
; 
;  layer: 2  path: 81/108
; 
;  layer: 2  path: 81 points: 0/1
T0
G1 X-0.00 Y5.20 Z0.4 F1200
; 
;  layer: 2  path: 81 points: 1/1
T0
G1 X31.29 Y5.20 Z0.4 E432.9253 F1200
; 
;  layer: 2  path: 80/108
; 
;  layer: 2  path: 80 points: 0/0
T0
G1 X-0.00 Y5.93 Z0.4 F1200
; 
;  layer: 2  path: 79/108
; 
;  layer: 2  path: 79 points: 0/1
T0
G1 X83.71 Y5.20 Z0.4 F1200
; 
;  layer: 2  path: 79 points: 1/1
T0
G1 X115.00 Y5.20 Z0.4 E436.7242 F1200
; 
;  layer: 2  path: 78/108
; 
;  layer: 2  path: 78 points: 0/1
T0
G1 X-0.00 Y5.60 Z0.4 F1200
; 
;  layer: 2  path: 78 points: 1/1
T0
G1 X32.37 Y5.60 Z0.4 E439.4904 F1200
; 
;  layer: 2  path: 77/108
; 
;  layer: 2  path: 77 points: 0/1
T0
G1 X82.63 Y5.60 Z0.4 F1200
; 
;  layer: 2  path: 77 points: 1/1
T0
G1 X115.00 Y5.60 Z0.4 E443.2863 F1200
; 
;  layer: 2  path: 76/108
; 
;  layer: 2  path: 76 points: 0/1
T0
G1 X-0.00 Y6.00 Z0.4 F1200
; 
;  layer: 2  path: 76 points: 1/1
T0
G1 X33.45 Y6.00 Z0.4 E446.0491 F1200
; 
;  layer: 2  path: 75/108
; 
;  layer: 2  path: 75 points: 0/1
T0
G1 X81.55 Y6.00 Z0.4 F1200
; 
;  layer: 2  path: 75 points: 1/1
T0
G1 X115.00 Y6.00 Z0.4 E449.8422 F1200
; 
;  layer: 2  path: 74/108
; 
;  layer: 2  path: 74 points: 0/1
T0
G1 X-0.00 Y6.40 Z0.4 F1200
; 
;  layer: 2  path: 74 points: 1/1
T0
G1 X34.53 Y6.40 Z0.4 E452.6022 F1200
; 
;  layer: 2  path: 73/108
; 
;  layer: 2  path: 73 points: 0/1
T0
G1 X80.47 Y6.40 Z0.4 F1200
; 
;  layer: 2  path: 73 points: 1/1
T0
G1 X115.00 Y6.40 Z0.4 E456.3926 F1200
; 
;  layer: 2  path: 72/108
; 
;  layer: 2  path: 72 points: 0/1
T0
G1 X-0.00 Y6.80 Z0.4 F1200
; 
;  layer: 2  path: 72 points: 1/1
T0
G1 X35.61 Y6.80 Z0.4 E459.1504 F1200
; 
;  layer: 2  path: 71/108
; 
;  layer: 2  path: 71 points: 0/1
T0
G1 X79.39 Y6.80 Z0.4 F1200
; 
;  layer: 2  path: 71 points: 1/1
T0
G1 X115.00 Y6.80 Z0.4 E462.9382 F1200
; 
;  layer: 2  path: 70/108
; 
;  layer: 2  path: 70 points: 0/1
T0
G1 X-0.00 Y7.20 Z0.4 F1200
; 
;  layer: 2  path: 70 points: 1/1
T0
G1 X36.68 Y7.20 Z0.4 E465.6944 F1200
; 
;  layer: 2  path: 69/108
; 
;  layer: 2  path: 69 points: 0/1
T0
G1 X78.32 Y7.20 Z0.4 F1200
; 
;  layer: 2  path: 69 points: 1/1
T0
G1 X115.00 Y7.20 Z0.4 E469.4797 F1200
; 
;  layer: 2  path: 68/108
; 
;  layer: 2  path: 68 points: 0/1
T0
G1 X-0.00 Y7.60 Z0.4 F1200
; 
;  layer: 2  path: 68 points: 1/1
T0
G1 X37.76 Y7.60 Z0.4 E472.2349 F1200
; 
;  layer: 2  path: 67/108
; 
;  layer: 2  path: 67 points: 0/1
T0
G1 X77.24 Y7.60 Z0.4 F1200
; 
;  layer: 2  path: 67 points: 1/1
T0
G1 X115.00 Y7.60 Z0.4 E476.0178 F1200
; 
;  layer: 2  path: 66/108
; 
;  layer: 2  path: 66 points: 0/1
T0
G1 X-0.00 Y8.00 Z0.4 F1200
; 
;  layer: 2  path: 66 points: 1/1
T0
G1 X38.84 Y8.00 Z0.4 E478.7725 F1200
; 
;  layer: 2  path: 65/108
; 
;  layer: 2  path: 65 points: 0/1
T0
G1 X76.16 Y8.00 Z0.4 F1200
; 
;  layer: 2  path: 65 points: 1/1
T0
G1 X115.00 Y8.00 Z0.4 E482.5532 F1200
; 
;  layer: 2  path: 64/108
; 
;  layer: 2  path: 64 points: 0/1
T0
G1 X-0.00 Y8.40 Z0.4 F1200
; 
;  layer: 2  path: 64 points: 1/1
T0
G1 X39.92 Y8.40 Z0.4 E485.3081 F1200
; 
;  layer: 2  path: 63/108
; 
;  layer: 2  path: 63 points: 0/1
T0
G1 X75.08 Y8.40 Z0.4 F1200
; 
;  layer: 2  path: 63 points: 1/1
T0
G1 X115.00 Y8.40 Z0.4 E489.0867 F1200
; 
;  layer: 2  path: 62/108
; 
;  layer: 2  path: 62 points: 0/1
T0
G1 X-0.00 Y8.80 Z0.4 F1200
; 
;  layer: 2  path: 62 points: 1/1
T0
G1 X41.00 Y8.80 Z0.4 E491.8423 F1200
; 
;  layer: 2  path: 61/108
; 
;  layer: 2  path: 61 points: 0/1
T0
G1 X74.00 Y8.80 Z0.4 F1200
; 
;  layer: 2  path: 61 points: 1/1
T0
G1 X115.00 Y8.80 Z0.4 E495.6190 F1200
; 
;  layer: 2  path: 60/108
; 
;  layer: 2  path: 60 points: 0/1
T0
G1 X-0.00 Y9.20 Z0.4 F1200
; 
;  layer: 2  path: 60 points: 1/1
T0
G1 X115.00 Y9.20 Z0.4 E500.0854 F1200
; 
;  layer: 2  path: 59/108
; 
;  layer: 2  path: 59 points: 0/1
T0
G1 X-0.00 Y9.60 Z0.4 F1200
; 
;  layer: 2  path: 59 points: 1/1
T0
G1 X115.00 Y9.60 Z0.4 E504.5421 F1200
; 
;  layer: 2  path: 58/108
; 
;  layer: 2  path: 58 points: 0/1
T0
G1 X-0.00 Y10.00 Z0.4 F1200
; 
;  layer: 2  path: 58 points: 1/1
T0
G1 X115.00 Y10.00 Z0.4 E508.9892 F1200
; 
;  layer: 2  path: 57/108
; 
;  layer: 2  path: 57 points: 0/1
T0
G1 X-0.00 Y10.40 Z0.4 F1200
; 
;  layer: 2  path: 57 points: 1/1
T0
G1 X115.00 Y10.40 Z0.4 E513.4267 F1200
; 
;  layer: 2  path: 56/108
; 
;  layer: 2  path: 56 points: 0/1
T0
G1 X-0.00 Y10.80 Z0.4 F1200
; 
;  layer: 2  path: 56 points: 1/1
T0
G1 X115.00 Y10.80 Z0.4 E517.8546 F1200
; 
;  layer: 2  path: 55/108
; 
;  layer: 2  path: 55 points: 0/1
T0
G1 X-0.00 Y11.20 Z0.4 F1200
; 
;  layer: 2  path: 55 points: 1/1
T0
G1 X115.00 Y11.20 Z0.4 E522.2731 F1200
; 
;  layer: 2  path: 54/108
; 
;  layer: 2  path: 54 points: 0/1
T0
G1 X-0.00 Y11.60 Z0.4 F1200
; 
;  layer: 2  path: 54 points: 1/1
T0
G1 X115.00 Y11.60 Z0.4 E526.6821 F1200
; 
;  layer: 2  path: 53/108
; 
;  layer: 2  path: 53 points: 0/1
T0
G1 X-0.00 Y12.00 Z0.4 F1200
; 
;  layer: 2  path: 53 points: 1/1
T0
G1 X115.00 Y12.00 Z0.4 E531.0817 F1200
; 
;  layer: 2  path: 52/108
; 
;  layer: 2  path: 52 points: 0/1
T0
G1 X-0.00 Y12.40 Z0.4 F1200
; 
;  layer: 2  path: 52 points: 1/1
T0
G1 X115.00 Y12.40 Z0.4 E535.4720 F1200
; 
;  layer: 2  path: 51/108
; 
;  layer: 2  path: 51 points: 0/1
T0
G1 X-0.00 Y12.80 Z0.4 F1200
; 
;  layer: 2  path: 51 points: 1/1
T0
G1 X115.00 Y12.80 Z0.4 E539.8530 F1200
; 
;  layer: 2  path: 50/108
; 
;  layer: 2  path: 50 points: 0/1
T0
G1 X-0.00 Y13.20 Z0.4 F1200
; 
;  layer: 2  path: 50 points: 1/1
T0
G1 X115.00 Y13.20 Z0.4 E544.2249 F1200
; 
;  layer: 2  path: 49/108
; 
;  layer: 2  path: 49 points: 0/1
T0
G1 X-0.00 Y13.60 Z0.4 F1200
; 
;  layer: 2  path: 49 points: 1/1
T0
G1 X115.00 Y13.60 Z0.4 E548.5875 F1200
; 
;  layer: 2  path: 48/108
; 
;  layer: 2  path: 48 points: 0/1
T0
G1 X-0.00 Y14.00 Z0.4 F1200
; 
;  layer: 2  path: 48 points: 1/1
T0
G1 X115.00 Y14.00 Z0.4 E552.9410 F1200
; 
;  layer: 2  path: 47/108
; 
;  layer: 2  path: 47 points: 0/1
T0
G1 X-0.00 Y14.40 Z0.4 F1200
; 
;  layer: 2  path: 47 points: 1/1
T0
G1 X115.00 Y14.40 Z0.4 E557.2855 F1200
; 
;  layer: 2  path: 46/108
; 
;  layer: 2  path: 46 points: 0/1
T0
G1 X-0.00 Y14.80 Z0.4 F1200
; 
;  layer: 2  path: 46 points: 1/1
T0
G1 X115.00 Y14.80 Z0.4 E561.6210 F1200
; 
;  layer: 2  path: 45/108
; 
;  layer: 2  path: 45 points: 0/1
T0
G1 X-0.00 Y15.20 Z0.4 F1200
; 
;  layer: 2  path: 45 points: 1/1
T0
G1 X41.00 Y15.20 Z0.4 E564.1262 F1200
; 
;  layer: 2  path: 44/108
; 
;  layer: 2  path: 44 points: 0/1
T0
G1 X74.00 Y15.20 Z0.4 F1200
; 
;  layer: 2  path: 44 points: 1/1
T0
G1 X115.00 Y15.20 Z0.4 E567.7242 F1200
; 
;  layer: 2  path: 43/108
; 
;  layer: 2  path: 43 points: 0/1
T0
G1 X-0.00 Y15.60 Z0.4 F1200
; 
;  layer: 2  path: 43 points: 1/1
T0
G1 X39.92 Y15.60 Z0.4 E570.1955 F1200
; 
;  layer: 2  path: 42/108
; 
;  layer: 2  path: 42 points: 0/1
T0
G1 X75.08 Y15.60 Z0.4 F1200
; 
;  layer: 2  path: 42 points: 1/1
T0
G1 X115.00 Y15.60 Z0.4 E573.7727 F1200
; 
;  layer: 2  path: 41/108
; 
;  layer: 2  path: 41 points: 0/1
T0
G1 X-0.00 Y16.00 Z0.4 F1200
; 
;  layer: 2  path: 41 points: 1/1
T0
G1 X38.84 Y16.00 Z0.4 E576.2103 F1200
; 
;  layer: 2  path: 40/108
; 
;  layer: 2  path: 40 points: 0/1
T0
G1 X76.16 Y16.00 Z0.4 F1200
; 
;  layer: 2  path: 40 points: 1/1
T0
G1 X115.00 Y16.00 Z0.4 E579.7666 F1200
; 
;  layer: 2  path: 39/108
; 
;  layer: 2  path: 39 points: 0/1
T0
G1 X-0.00 Y16.40 Z0.4 F1200
; 
;  layer: 2  path: 39 points: 1/1
T0
G1 X37.76 Y16.40 Z0.4 E582.1707 F1200
; 
;  layer: 2  path: 38/108
; 
;  layer: 2  path: 38 points: 0/1
T0
G1 X77.24 Y16.40 Z0.4 F1200
; 
;  layer: 2  path: 38 points: 1/1
T0
G1 X115.00 Y16.40 Z0.4 E585.7062 F1200
; 
;  layer: 2  path: 37/108
; 
;  layer: 2  path: 37 points: 0/1
T0
G1 X-0.00 Y16.80 Z0.4 F1200
; 
;  layer: 2  path: 37 points: 1/1
T0
G1 X36.68 Y16.80 Z0.4 E588.0770 F1200
; 
;  layer: 2  path: 36/108
; 
;  layer: 2  path: 36 points: 0/1
T0
G1 X78.32 Y16.80 Z0.4 F1200
; 
;  layer: 2  path: 36 points: 1/1
T0
G1 X115.00 Y16.80 Z0.4 E591.5916 F1200
; 
;  layer: 2  path: 35/108
; 
;  layer: 2  path: 35 points: 0/1
T0
G1 X-0.00 Y17.20 Z0.4 F1200
; 
;  layer: 2  path: 35 points: 1/1
T0
G1 X35.61 Y17.20 Z0.4 E593.9293 F1200
; 
;  layer: 2  path: 34/108
; 
;  layer: 2  path: 34 points: 0/1
T0
G1 X79.39 Y17.20 Z0.4 F1200
; 
;  layer: 2  path: 34 points: 1/1
T0
G1 X115.00 Y17.20 Z0.4 E597.4232 F1200
; 
;  layer: 2  path: 33/108
; 
;  layer: 2  path: 33 points: 0/1
T0
G1 X-0.00 Y17.60 Z0.4 F1200
; 
;  layer: 2  path: 33 points: 1/1
T0
G1 X34.53 Y17.60 Z0.4 E599.7280 F1200
; 
;  layer: 2  path: 32/108
; 
;  layer: 2  path: 32 points: 0/1
T0
G1 X80.47 Y17.60 Z0.4 F1200
; 
;  layer: 2  path: 32 points: 1/1
T0
G1 X115.00 Y17.60 Z0.4 E603.2011 F1200
; 
;  layer: 2  path: 31/108
; 
;  layer: 2  path: 31 points: 0/1
T0
G1 X-0.00 Y18.00 Z0.4 F1200
; 
;  layer: 2  path: 31 points: 1/1
T0
G1 X33.45 Y18.00 Z0.4 E605.4733 F1200
; 
;  layer: 2  path: 30/108
; 
;  layer: 2  path: 30 points: 0/1
T0
G1 X81.55 Y18.00 Z0.4 F1200
; 
;  layer: 2  path: 30 points: 1/1
T0
G1 X115.00 Y18.00 Z0.4 E608.9255 F1200
; 
;  layer: 2  path: 29/108
; 
;  layer: 2  path: 29 points: 0/1
T0
G1 X-0.00 Y18.40 Z0.4 F1200
; 
;  layer: 2  path: 29 points: 1/1
T0
G1 X32.37 Y18.40 Z0.4 E611.1654 F1200
; 
;  layer: 2  path: 28/108
; 
;  layer: 2  path: 28 points: 0/1
T0
G1 X82.63 Y18.40 Z0.4 F1200
; 
;  layer: 2  path: 28 points: 1/1
T0
G1 X115.00 Y18.40 Z0.4 E614.5969 F1200
; 
;  layer: 2  path: 27/108
; 
;  layer: 2  path: 27 points: 0/1
T0
G1 X-0.00 Y18.80 Z0.4 F1200
; 
;  layer: 2  path: 27 points: 1/1
T0
G1 X31.29 Y18.80 Z0.4 E616.8047 F1200
; 
;  layer: 2  path: 26/108
; 
;  layer: 2  path: 26 points: 0/1
T0
G1 X83.71 Y18.80 Z0.4 F1200
; 
;  layer: 2  path: 26 points: 1/1
T0
G1 X115.00 Y18.80 Z0.4 E620.2153 F1200
; 
;  layer: 2  path: 25/108
; 
;  layer: 2  path: 25 points: 0/1
T0
G1 X-0.00 Y19.20 Z0.4 F1200
; 
;  layer: 2  path: 25 points: 1/1
T0
G1 X30.21 Y19.20 Z0.4 E622.3912 F1200
; 
;  layer: 2  path: 24/108
; 
;  layer: 2  path: 24 points: 0/1
T0
G1 X84.79 Y19.20 Z0.4 F1200
; 
;  layer: 2  path: 24 points: 1/1
T0
G1 X115.00 Y19.20 Z0.4 E625.7811 F1200
; 
;  layer: 2  path: 23/108
; 
;  layer: 2  path: 23 points: 0/1
T0
G1 X-0.00 Y19.60 Z0.4 F1200
; 
;  layer: 2  path: 23 points: 1/1
T0
G1 X29.13 Y19.60 Z0.4 E627.9255 F1200
; 
;  layer: 2  path: 22/108
; 
;  layer: 2  path: 22 points: 0/1
T0
G1 X85.87 Y19.60 Z0.4 F1200
; 
;  layer: 2  path: 22 points: 1/1
T0
G1 X115.00 Y19.60 Z0.4 E631.2946 F1200
; 
;  layer: 2  path: 21/108
; 
;  layer: 2  path: 21 points: 0/1
T0
G1 X-0.00 Y20.00 Z0.4 F1200
; 
;  layer: 2  path: 21 points: 1/1
T0
G1 X28.05 Y20.00 Z0.4 E633.4077 F1200
; 
;  layer: 2  path: 20/108
; 
;  layer: 2  path: 20 points: 0/1
T0
G1 X86.95 Y20.00 Z0.4 F1200
; 
;  layer: 2  path: 20 points: 1/1
T0
G1 X115.00 Y20.00 Z0.4 E636.7561 F1200
; 
;  layer: 2  path: 19/108
; 
;  layer: 2  path: 19 points: 0/1
T0
G1 X-0.00 Y20.40 Z0.4 F1200
; 
;  layer: 2  path: 19 points: 1/1
T0
G1 X26.97 Y20.40 Z0.4 E638.8382 F1200
; 
;  layer: 2  path: 18/108
; 
;  layer: 2  path: 18 points: 0/1
T0
G1 X88.03 Y20.40 Z0.4 F1200
; 
;  layer: 2  path: 18 points: 1/1
T0
G1 X115.00 Y20.40 Z0.4 E642.1659 F1200
; 
;  layer: 2  path: 17/108
; 
;  layer: 2  path: 17 points: 0/1
T0
G1 X-0.00 Y20.80 Z0.4 F1200
; 
;  layer: 2  path: 17 points: 1/1
T0
G1 X25.89 Y20.80 Z0.4 E644.2173 F1200
; 
;  layer: 2  path: 16/108
; 
;  layer: 2  path: 16 points: 0/1
T0
G1 X89.11 Y20.80 Z0.4 F1200
; 
;  layer: 2  path: 16 points: 1/1
T0
G1 X115.00 Y20.80 Z0.4 E647.5243 F1200
; 
;  layer: 2  path: 15/108
; 
;  layer: 2  path: 15 points: 0/1
T0
G1 X-0.00 Y21.20 Z0.4 F1200
; 
;  layer: 2  path: 15 points: 1/1
T0
G1 X24.82 Y21.20 Z0.4 E649.5455 F1200
; 
;  layer: 2  path: 14/108
; 
;  layer: 2  path: 14 points: 0/1
T0
G1 X90.18 Y21.20 Z0.4 F1200
; 
;  layer: 2  path: 14 points: 1/1
T0
G1 X115.00 Y21.20 Z0.4 E652.8319 F1200
; 
;  layer: 2  path: 13/108
; 
;  layer: 2  path: 13 points: 0/1
T0
G1 X-0.00 Y21.60 Z0.4 F1200
; 
;  layer: 2  path: 13 points: 1/1
T0
G1 X23.74 Y21.60 Z0.4 E654.8230 F1200
; 
;  layer: 2  path: 12/108
; 
;  layer: 2  path: 12 points: 0/1
T0
G1 X91.26 Y21.60 Z0.4 F1200
; 
;  layer: 2  path: 12 points: 1/1
T0
G1 X115.00 Y21.60 Z0.4 E658.0888 F1200
; 
;  layer: 2  path: 11/108
; 
;  layer: 2  path: 11 points: 0/1
T0
G1 X-0.00 Y22.00 Z0.4 F1200
; 
;  layer: 2  path: 11 points: 1/1
T0
G1 X22.66 Y22.00 Z0.4 E660.0503 F1200
; 
;  layer: 2  path: 10/108
; 
;  layer: 2  path: 10 points: 0/1
T0
G1 X92.34 Y22.00 Z0.4 F1200
; 
;  layer: 2  path: 10 points: 1/1
T0
G1 X115.00 Y22.00 Z0.4 E663.2954 F1200
; 
;  layer: 2  path: 9/108
; 
;  layer: 2  path: 9 points: 0/1
T0
G1 X-0.00 Y22.40 Z0.4 F1200
; 
;  layer: 2  path: 9 points: 1/1
T0
G1 X21.58 Y22.40 Z0.4 E665.2277 F1200
; 
;  layer: 2  path: 8/108
; 
;  layer: 2  path: 8 points: 0/1
T0
G1 X93.42 Y22.40 Z0.4 F1200
; 
;  layer: 2  path: 8 points: 1/1
T0
G1 X115.00 Y22.40 Z0.4 E668.4522 F1200
; 
;  layer: 2  path: 7/108
; 
;  layer: 2  path: 7 points: 0/1
T0
G1 X-0.00 Y22.80 Z0.4 F1200
; 
;  layer: 2  path: 7 points: 1/1
T0
G1 X20.50 Y22.80 Z0.4 E670.3557 F1200
; 
;  layer: 2  path: 6/108
; 
;  layer: 2  path: 6 points: 0/1
T0
G1 X94.50 Y22.80 Z0.4 F1200
; 
;  layer: 2  path: 6 points: 1/1
T0
G1 X115.00 Y22.80 Z0.4 E673.5595 F1200
; 
;  layer: 2  path: 5/108
; 
;  layer: 2  path: 5 points: 0/1
T0
G1 X-0.00 Y23.20 Z0.4 F1200
; 
;  layer: 2  path: 5 points: 1/1
T0
G1 X19.42 Y23.20 Z0.4 E675.4346 F1200
; 
;  layer: 2  path: 4/108
; 
;  layer: 2  path: 4 points: 0/1
T0
G1 X95.58 Y23.20 Z0.4 F1200
; 
;  layer: 2  path: 4 points: 1/1
T0
G1 X115.00 Y23.20 Z0.4 E678.6179 F1200
; 
;  layer: 2  path: 3/108
; 
;  layer: 2  path: 3 points: 0/1
T0
G1 X-0.00 Y23.60 Z0.4 F1200
; 
;  layer: 2  path: 3 points: 1/1
T0
G1 X18.34 Y23.60 Z0.4 E680.4649 F1200
; 
;  layer: 2  path: 2/108
; 
;  layer: 2  path: 2 points: 0/1
T0
G1 X96.66 Y23.60 Z0.4 F1200
; 
;  layer: 2  path: 2 points: 1/1
T0
G1 X115.00 Y23.60 Z0.4 E683.6276 F1200
; 
;  layer: 2  path: 1/108
; 
;  layer: 2  path: 1 points: 0/1
T0
G1 X-0.00 Y24.00 Z0.4 F1200
; 
;  layer: 2  path: 1 points: 1/1
T0
G1 X17.26 Y24.00 Z0.4 E685.4471 F1200
; 
;  layer: 2  path: 0/108
; 
;  layer: 2  path: 0 points: 0/1
T0
G1 X97.74 Y24.00 Z0.4 F1200
; 
;  layer: 2  path: 0 points: 1/1
T0
G1 X115.00 Y24.00 Z0.4 E688.5893 F1200
; 
; 
;  layer: 3/10
; 
; 
;  layer: 3  path: 108/108
; 
;  layer: 3  path: 108 points: 0/1
T0
G1 X-0.00 Y-0.00 Z0.6 F1200
; 
;  layer: 3  path: 108 points: 1/1
T0
G1 X17.26 Y-0.00 Z0.6 E691.4616 F1200
; 
;  layer: 3  path: 107/108
; 
;  layer: 3  path: 107 points: 0/1
T0
G1 X115.00 Y-0.00 Z0.6 F1200
; 
;  layer: 3  path: 107 points: 1/1
T0
G1 X97.74 Y-0.00 Z0.6 E694.8320 F1200
; 
;  layer: 3  path: 106/108
; 
;  layer: 3  path: 106 points: 0/1
T0
G1 X-0.00 Y0.40 Z0.6 F1200
; 
;  layer: 3  path: 106 points: 1/1
T0
G1 X18.34 Y0.40 Z0.6 E697.6932 F1200
; 
;  layer: 3  path: 105/108
; 
;  layer: 3  path: 105 points: 0/1
T0
G1 X96.66 Y0.40 Z0.6 F1200
; 
;  layer: 3  path: 105 points: 1/1
T0
G1 X115.00 Y0.40 Z0.6 E701.5374 F1200
; 
;  layer: 3  path: 104/108
; 
;  layer: 3  path: 104 points: 0/1
T0
G1 X-0.00 Y0.80 Z0.6 F1200
; 
;  layer: 3  path: 104 points: 1/1
T0
G1 X19.42 Y0.80 Z0.6 E704.3880 F1200
; 
;  layer: 3  path: 103/108
; 
;  layer: 3  path: 103 points: 0/1
T0
G1 X95.58 Y0.80 Z0.6 F1200
; 
;  layer: 3  path: 103 points: 1/1
T0
G1 X115.00 Y0.80 Z0.6 E708.2278 F1200
; 
;  layer: 3  path: 102/108
; 
;  layer: 3  path: 102 points: 0/1
T0
G1 X-0.00 Y1.20 Z0.6 F1200
; 
;  layer: 3  path: 102 points: 1/1
T0
G1 X20.50 Y1.20 Z0.6 E711.0683 F1200
; 
;  layer: 3  path: 101/108
; 
;  layer: 3  path: 101 points: 0/1
T0
G1 X94.50 Y1.20 Z0.6 F1200
; 
;  layer: 3  path: 101 points: 1/1
T0
G1 X115.00 Y1.20 Z0.6 E714.9038 F1200
; 
;  layer: 3  path: 100/108
; 
;  layer: 3  path: 100 points: 0/1
T0
G1 X-0.00 Y1.60 Z0.6 F1200
; 
;  layer: 3  path: 100 points: 1/1
T0
G1 X21.58 Y1.60 Z0.6 E717.7348 F1200
; 
;  layer: 3  path: 99/108
; 
;  layer: 3  path: 99 points: 0/1
T0
G1 X93.42 Y1.60 Z0.6 F1200
; 
;  layer: 3  path: 99 points: 1/1
T0
G1 X115.00 Y1.60 Z0.6 E721.5660 F1200
; 
;  layer: 3  path: 98/108
; 
;  layer: 3  path: 98 points: 0/1
T0
G1 X-0.00 Y2.00 Z0.6 F1200
; 
;  layer: 3  path: 98 points: 1/1
T0
G1 X22.66 Y2.00 Z0.6 E724.3881 F1200
; 
;  layer: 3  path: 97/108
; 
;  layer: 3  path: 97 points: 0/1
T0
G1 X92.34 Y2.00 Z0.6 F1200
; 
;  layer: 3  path: 97 points: 1/1
T0
G1 X115.00 Y2.00 Z0.6 E728.2152 F1200
; 
;  layer: 3  path: 96/108
; 
;  layer: 3  path: 96 points: 0/1
T0
G1 X-0.00 Y2.40 Z0.6 F1200
; 
;  layer: 3  path: 96 points: 1/1
T0
G1 X23.74 Y2.40 Z0.6 E731.0288 F1200
; 
;  layer: 3  path: 95/108
; 
;  layer: 3  path: 95 points: 0/1
T0
G1 X91.26 Y2.40 Z0.6 F1200
; 
;  layer: 3  path: 95 points: 1/1
T0
G1 X115.00 Y2.40 Z0.6 E734.8520 F1200
; 
;  layer: 3  path: 94/108
; 
;  layer: 3  path: 94 points: 0/1
T0
G1 X-0.00 Y2.80 Z0.6 F1200
; 
;  layer: 3  path: 94 points: 1/1
T0
G1 X24.82 Y2.80 Z0.6 E737.6577 F1200
; 
;  layer: 3  path: 93/108
; 
;  layer: 3  path: 93 points: 0/1
T0
G1 X90.18 Y2.80 Z0.6 F1200
; 
;  layer: 3  path: 93 points: 1/1
T0
G1 X115.00 Y2.80 Z0.6 E741.4770 F1200
; 
;  layer: 3  path: 92/108
; 
;  layer: 3  path: 92 points: 0/1
T0
G1 X-0.00 Y3.20 Z0.6 F1200
; 
;  layer: 3  path: 92 points: 1/1
T0
G1 X25.89 Y3.20 Z0.6 E744.2754 F1200
; 
;  layer: 3  path: 91/108
; 
;  layer: 3  path: 91 points: 0/1
T0
G1 X89.11 Y3.20 Z0.6 F1200
; 
;  layer: 3  path: 91 points: 1/1
T0
G1 X115.00 Y3.20 Z0.6 E748.0910 F1200
; 
;  layer: 3  path: 90/108
; 
;  layer: 3  path: 90 points: 0/1
T0
G1 X0.00 Y3.60 Z0.6 F1200
; 
;  layer: 3  path: 90 points: 1/1
T0
G1 X26.97 Y3.60 Z0.6 E750.8825 F1200
; 
;  layer: 3  path: 89/108
; 
;  layer: 3  path: 89 points: 0/1
T0
G1 X88.03 Y3.60 Z0.6 F1200
; 
;  layer: 3  path: 89 points: 1/1
T0
G1 X115.00 Y3.60 Z0.6 E754.6945 F1200
; 
;  layer: 3  path: 88/108
; 
;  layer: 3  path: 88 points: 0/1
T0
G1 X-0.00 Y4.00 Z0.6 F1200
; 
;  layer: 3  path: 88 points: 1/1
T0
G1 X28.05 Y4.00 Z0.6 E757.4799 F1200
; 
;  layer: 3  path: 87/108
; 
;  layer: 3  path: 87 points: 0/0
T0
G1 X27.00 Y3.80 Z0.6 F1200
; 
;  layer: 3  path: 86/108
; 
;  layer: 3  path: 86 points: 0/1
T0
G1 X86.95 Y4.00 Z0.6 F1200
; 
;  layer: 3  path: 86 points: 1/1
T0
G1 X115.00 Y4.00 Z0.6 E761.2884 F1200
; 
;  layer: 3  path: 85/108
; 
;  layer: 3  path: 85 points: 0/1
T0
G1 X-0.00 Y4.40 Z0.6 F1200
; 
;  layer: 3  path: 85 points: 1/1
T0
G1 X29.13 Y4.40 Z0.6 E764.0681 F1200
; 
;  layer: 3  path: 84/108
; 
;  layer: 3  path: 84 points: 0/1
T0
G1 X85.87 Y4.40 Z0.6 F1200
; 
;  layer: 3  path: 84 points: 1/1
T0
G1 X115.00 Y4.40 Z0.6 E767.8733 F1200
; 
;  layer: 3  path: 83/108
; 
;  layer: 3  path: 83 points: 0/1
T0
G1 X-0.00 Y4.80 Z0.6 F1200
; 
;  layer: 3  path: 83 points: 1/1
T0
G1 X30.21 Y4.80 Z0.6 E770.6479 F1200
; 
;  layer: 3  path: 82/108
; 
;  layer: 3  path: 82 points: 0/1
T0
G1 X84.79 Y4.80 Z0.6 F1200
; 
;  layer: 3  path: 82 points: 1/1
T0
G1 X115.00 Y4.80 Z0.6 E774.4499 F1200
; 
;  layer: 3  path: 81/108
; 
;  layer: 3  path: 81 points: 0/1
T0
G1 X-0.00 Y5.20 Z0.6 F1200
; 
;  layer: 3  path: 81 points: 1/1
T0
G1 X31.29 Y5.20 Z0.6 E777.2200 F1200
; 
;  layer: 3  path: 80/108
; 
;  layer: 3  path: 80 points: 0/0
T0
G1 X-0.00 Y5.93 Z0.6 F1200
; 
;  layer: 3  path: 79/108
; 
;  layer: 3  path: 79 points: 0/1
T0
G1 X83.71 Y5.20 Z0.6 F1200
; 
;  layer: 3  path: 79 points: 1/1
T0
G1 X115.00 Y5.20 Z0.6 E781.0189 F1200
; 
;  layer: 3  path: 78/108
; 
;  layer: 3  path: 78 points: 0/1
T0
G1 X-0.00 Y5.60 Z0.6 F1200
; 
;  layer: 3  path: 78 points: 1/1
T0
G1 X32.37 Y5.60 Z0.6 E783.7851 F1200
; 
;  layer: 3  path: 77/108
; 
;  layer: 3  path: 77 points: 0/1
T0
G1 X82.63 Y5.60 Z0.6 F1200
; 
;  layer: 3  path: 77 points: 1/1
T0
G1 X115.00 Y5.60 Z0.6 E787.5810 F1200
; 
;  layer: 3  path: 76/108
; 
;  layer: 3  path: 76 points: 0/1
T0
G1 X-0.00 Y6.00 Z0.6 F1200
; 
;  layer: 3  path: 76 points: 1/1
T0
G1 X33.45 Y6.00 Z0.6 E790.3438 F1200
; 
;  layer: 3  path: 75/108
; 
;  layer: 3  path: 75 points: 0/1
T0
G1 X81.55 Y6.00 Z0.6 F1200
; 
;  layer: 3  path: 75 points: 1/1
T0
G1 X115.00 Y6.00 Z0.6 E794.1369 F1200
; 
;  layer: 3  path: 74/108
; 
;  layer: 3  path: 74 points: 0/1
T0
G1 X-0.00 Y6.40 Z0.6 F1200
; 
;  layer: 3  path: 74 points: 1/1
T0
G1 X34.53 Y6.40 Z0.6 E796.8969 F1200
; 
;  layer: 3  path: 73/108
; 
;  layer: 3  path: 73 points: 0/1
T0
G1 X80.47 Y6.40 Z0.6 F1200
; 
;  layer: 3  path: 73 points: 1/1
T0
G1 X115.00 Y6.40 Z0.6 E800.6873 F1200
; 
;  layer: 3  path: 72/108
; 
;  layer: 3  path: 72 points: 0/1
T0
G1 X-0.00 Y6.80 Z0.6 F1200
; 
;  layer: 3  path: 72 points: 1/1
T0
G1 X35.61 Y6.80 Z0.6 E803.4451 F1200
; 
;  layer: 3  path: 71/108
; 
;  layer: 3  path: 71 points: 0/1
T0
G1 X79.39 Y6.80 Z0.6 F1200
; 
;  layer: 3  path: 71 points: 1/1
T0
G1 X115.00 Y6.80 Z0.6 E807.2329 F1200
; 
;  layer: 3  path: 70/108
; 
;  layer: 3  path: 70 points: 0/1
T0
G1 X-0.00 Y7.20 Z0.6 F1200
; 
;  layer: 3  path: 70 points: 1/1
T0
G1 X36.68 Y7.20 Z0.6 E809.9891 F1200
; 
;  layer: 3  path: 69/108
; 
;  layer: 3  path: 69 points: 0/1
T0
G1 X78.32 Y7.20 Z0.6 F1200
; 
;  layer: 3  path: 69 points: 1/1
T0
G1 X115.00 Y7.20 Z0.6 E813.7743 F1200
; 
;  layer: 3  path: 68/108
; 
;  layer: 3  path: 68 points: 0/1
T0
G1 X-0.00 Y7.60 Z0.6 F1200
; 
;  layer: 3  path: 68 points: 1/1
T0
G1 X37.76 Y7.60 Z0.6 E816.5295 F1200
; 
;  layer: 3  path: 67/108
; 
;  layer: 3  path: 67 points: 0/1
T0
G1 X77.24 Y7.60 Z0.6 F1200
; 
;  layer: 3  path: 67 points: 1/1
T0
G1 X115.00 Y7.60 Z0.6 E820.3124 F1200
; 
;  layer: 3  path: 66/108
; 
;  layer: 3  path: 66 points: 0/1
T0
G1 X-0.00 Y8.00 Z0.6 F1200
; 
;  layer: 3  path: 66 points: 1/1
T0
G1 X38.84 Y8.00 Z0.6 E823.0671 F1200
; 
;  layer: 3  path: 65/108
; 
;  layer: 3  path: 65 points: 0/1
T0
G1 X76.16 Y8.00 Z0.6 F1200
; 
;  layer: 3  path: 65 points: 1/1
T0
G1 X115.00 Y8.00 Z0.6 E826.8479 F1200
; 
;  layer: 3  path: 64/108
; 
;  layer: 3  path: 64 points: 0/1
T0
G1 X-0.00 Y8.40 Z0.6 F1200
; 
;  layer: 3  path: 64 points: 1/1
T0
G1 X39.92 Y8.40 Z0.6 E829.6027 F1200
; 
;  layer: 3  path: 63/108
; 
;  layer: 3  path: 63 points: 0/1
T0
G1 X75.08 Y8.40 Z0.6 F1200
; 
;  layer: 3  path: 63 points: 1/1
T0
G1 X115.00 Y8.40 Z0.6 E833.3814 F1200
; 
;  layer: 3  path: 62/108
; 
;  layer: 3  path: 62 points: 0/1
T0
G1 X-0.00 Y8.80 Z0.6 F1200
; 
;  layer: 3  path: 62 points: 1/1
T0
G1 X41.00 Y8.80 Z0.6 E836.1369 F1200
; 
;  layer: 3  path: 61/108
; 
;  layer: 3  path: 61 points: 0/1
T0
G1 X74.00 Y8.80 Z0.6 F1200
; 
;  layer: 3  path: 61 points: 1/1
T0
G1 X115.00 Y8.80 Z0.6 E839.9136 F1200
; 
;  layer: 3  path: 60/108
; 
;  layer: 3  path: 60 points: 0/1
T0
G1 X-0.00 Y9.20 Z0.6 F1200
; 
;  layer: 3  path: 60 points: 1/1
T0
G1 X115.00 Y9.20 Z0.6 E844.3800 F1200
; 
;  layer: 3  path: 59/108
; 
;  layer: 3  path: 59 points: 0/1
T0
G1 X-0.00 Y9.60 Z0.6 F1200
; 
;  layer: 3  path: 59 points: 1/1
T0
G1 X115.00 Y9.60 Z0.6 E848.8368 F1200
; 
;  layer: 3  path: 58/108
; 
;  layer: 3  path: 58 points: 0/1
T0
G1 X-0.00 Y10.00 Z0.6 F1200
; 
;  layer: 3  path: 58 points: 1/1
T0
G1 X115.00 Y10.00 Z0.6 E853.2838 F1200
; 
;  layer: 3  path: 57/108
; 
;  layer: 3  path: 57 points: 0/1
T0
G1 X-0.00 Y10.40 Z0.6 F1200
; 
;  layer: 3  path: 57 points: 1/1
T0
G1 X115.00 Y10.40 Z0.6 E857.7213 F1200
; 
;  layer: 3  path: 56/108
; 
;  layer: 3  path: 56 points: 0/1
T0
G1 X-0.00 Y10.80 Z0.6 F1200
; 
;  layer: 3  path: 56 points: 1/1
T0
G1 X115.00 Y10.80 Z0.6 E862.1493 F1200
; 
;  layer: 3  path: 55/108
; 
;  layer: 3  path: 55 points: 0/1
T0
G1 X-0.00 Y11.20 Z0.6 F1200
; 
;  layer: 3  path: 55 points: 1/1
T0
G1 X115.00 Y11.20 Z0.6 E866.5677 F1200
; 
;  layer: 3  path: 54/108
; 
;  layer: 3  path: 54 points: 0/1
T0
G1 X-0.00 Y11.60 Z0.6 F1200
; 
;  layer: 3  path: 54 points: 1/1
T0
G1 X115.00 Y11.60 Z0.6 E870.9767 F1200
; 
;  layer: 3  path: 53/108
; 
;  layer: 3  path: 53 points: 0/1
T0
G1 X-0.00 Y12.00 Z0.6 F1200
; 
;  layer: 3  path: 53 points: 1/1
T0
G1 X115.00 Y12.00 Z0.6 E875.3764 F1200
; 
;  layer: 3  path: 52/108
; 
;  layer: 3  path: 52 points: 0/1
T0
G1 X-0.00 Y12.40 Z0.6 F1200
; 
;  layer: 3  path: 52 points: 1/1
T0
G1 X115.00 Y12.40 Z0.6 E879.7667 F1200
; 
;  layer: 3  path: 51/108
; 
;  layer: 3  path: 51 points: 0/1
T0
G1 X-0.00 Y12.80 Z0.6 F1200
; 
;  layer: 3  path: 51 points: 1/1
T0
G1 X115.00 Y12.80 Z0.6 E884.1477 F1200
; 
;  layer: 3  path: 50/108
; 
;  layer: 3  path: 50 points: 0/1
T0
G1 X-0.00 Y13.20 Z0.6 F1200
; 
;  layer: 3  path: 50 points: 1/1
T0
G1 X115.00 Y13.20 Z0.6 E888.5195 F1200
; 
;  layer: 3  path: 49/108
; 
;  layer: 3  path: 49 points: 0/1
T0
G1 X-0.00 Y13.60 Z0.6 F1200
; 
;  layer: 3  path: 49 points: 1/1
T0
G1 X115.00 Y13.60 Z0.6 E892.8822 F1200
; 
;  layer: 3  path: 48/108
; 
;  layer: 3  path: 48 points: 0/1
T0
G1 X-0.00 Y14.00 Z0.6 F1200
; 
;  layer: 3  path: 48 points: 1/1
T0
G1 X115.00 Y14.00 Z0.6 E897.2357 F1200
; 
;  layer: 3  path: 47/108
; 
;  layer: 3  path: 47 points: 0/1
T0
G1 X-0.00 Y14.40 Z0.6 F1200
; 
;  layer: 3  path: 47 points: 1/1
T0
G1 X115.00 Y14.40 Z0.6 E901.5802 F1200
; 
;  layer: 3  path: 46/108
; 
;  layer: 3  path: 46 points: 0/1
T0
G1 X-0.00 Y14.80 Z0.6 F1200
; 
;  layer: 3  path: 46 points: 1/1
T0
G1 X115.00 Y14.80 Z0.6 E905.9156 F1200
; 
;  layer: 3  path: 45/108
; 
;  layer: 3  path: 45 points: 0/1
T0
G1 X-0.00 Y15.20 Z0.6 F1200
; 
;  layer: 3  path: 45 points: 1/1
T0
G1 X41.00 Y15.20 Z0.6 E908.4208 F1200
; 
;  layer: 3  path: 44/108
; 
;  layer: 3  path: 44 points: 0/1
T0
G1 X74.00 Y15.20 Z0.6 F1200
; 
;  layer: 3  path: 44 points: 1/1
T0
G1 X115.00 Y15.20 Z0.6 E912.0189 F1200
; 
;  layer: 3  path: 43/108
; 
;  layer: 3  path: 43 points: 0/1
T0
G1 X-0.00 Y15.60 Z0.6 F1200
; 
;  layer: 3  path: 43 points: 1/1
T0
G1 X39.92 Y15.60 Z0.6 E914.4902 F1200
; 
;  layer: 3  path: 42/108
; 
;  layer: 3  path: 42 points: 0/1
T0
G1 X75.08 Y15.60 Z0.6 F1200
; 
;  layer: 3  path: 42 points: 1/1
T0
G1 X115.00 Y15.60 Z0.6 E918.0674 F1200
; 
;  layer: 3  path: 41/108
; 
;  layer: 3  path: 41 points: 0/1
T0
G1 X-0.00 Y16.00 Z0.6 F1200
; 
;  layer: 3  path: 41 points: 1/1
T0
G1 X38.84 Y16.00 Z0.6 E920.5050 F1200
; 
;  layer: 3  path: 40/108
; 
;  layer: 3  path: 40 points: 0/1
T0
G1 X76.16 Y16.00 Z0.6 F1200
; 
;  layer: 3  path: 40 points: 1/1
T0
G1 X115.00 Y16.00 Z0.6 E924.0613 F1200
; 
;  layer: 3  path: 39/108
; 
;  layer: 3  path: 39 points: 0/1
T0
G1 X-0.00 Y16.40 Z0.6 F1200
; 
;  layer: 3  path: 39 points: 1/1
T0
G1 X37.76 Y16.40 Z0.6 E926.4654 F1200
; 
;  layer: 3  path: 38/108
; 
;  layer: 3  path: 38 points: 0/1
T0
G1 X77.24 Y16.40 Z0.6 F1200
; 
;  layer: 3  path: 38 points: 1/1
T0
G1 X115.00 Y16.40 Z0.6 E930.0008 F1200
; 
;  layer: 3  path: 37/108
; 
;  layer: 3  path: 37 points: 0/1
T0
G1 X-0.00 Y16.80 Z0.6 F1200
; 
;  layer: 3  path: 37 points: 1/1
T0
G1 X36.68 Y16.80 Z0.6 E932.3716 F1200
; 
;  layer: 3  path: 36/108
; 
;  layer: 3  path: 36 points: 0/1
T0
G1 X78.32 Y16.80 Z0.6 F1200
; 
;  layer: 3  path: 36 points: 1/1
T0
G1 X115.00 Y16.80 Z0.6 E935.8862 F1200
; 
;  layer: 3  path: 35/108
; 
;  layer: 3  path: 35 points: 0/1
T0
G1 X-0.00 Y17.20 Z0.6 F1200
; 
;  layer: 3  path: 35 points: 1/1
T0
G1 X35.61 Y17.20 Z0.6 E938.2240 F1200
; 
;  layer: 3  path: 34/108
; 
;  layer: 3  path: 34 points: 0/1
T0
G1 X79.39 Y17.20 Z0.6 F1200
; 
;  layer: 3  path: 34 points: 1/1
T0
G1 X115.00 Y17.20 Z0.6 E941.7178 F1200
; 
;  layer: 3  path: 33/108
; 
;  layer: 3  path: 33 points: 0/1
T0
G1 X-0.00 Y17.60 Z0.6 F1200
; 
;  layer: 3  path: 33 points: 1/1
T0
G1 X34.53 Y17.60 Z0.6 E944.0227 F1200
; 
;  layer: 3  path: 32/108
; 
;  layer: 3  path: 32 points: 0/1
T0
G1 X80.47 Y17.60 Z0.6 F1200
; 
;  layer: 3  path: 32 points: 1/1
T0
G1 X115.00 Y17.60 Z0.6 E947.4957 F1200
; 
;  layer: 3  path: 31/108
; 
;  layer: 3  path: 31 points: 0/1
T0
G1 X-0.00 Y18.00 Z0.6 F1200
; 
;  layer: 3  path: 31 points: 1/1
T0
G1 X33.45 Y18.00 Z0.6 E949.7680 F1200
; 
;  layer: 3  path: 30/108
; 
;  layer: 3  path: 30 points: 0/1
T0
G1 X81.55 Y18.00 Z0.6 F1200
; 
;  layer: 3  path: 30 points: 1/1
T0
G1 X115.00 Y18.00 Z0.6 E953.2202 F1200
; 
;  layer: 3  path: 29/108
; 
;  layer: 3  path: 29 points: 0/1
T0
G1 X-0.00 Y18.40 Z0.6 F1200
; 
;  layer: 3  path: 29 points: 1/1
T0
G1 X32.37 Y18.40 Z0.6 E955.4601 F1200
; 
;  layer: 3  path: 28/108
; 
;  layer: 3  path: 28 points: 0/1
T0
G1 X82.63 Y18.40 Z0.6 F1200
; 
;  layer: 3  path: 28 points: 1/1
T0
G1 X115.00 Y18.40 Z0.6 E958.8915 F1200
; 
;  layer: 3  path: 27/108
; 
;  layer: 3  path: 27 points: 0/1
T0
G1 X-0.00 Y18.80 Z0.6 F1200
; 
;  layer: 3  path: 27 points: 1/1
T0
G1 X31.29 Y18.80 Z0.6 E961.0993 F1200
; 
;  layer: 3  path: 26/108
; 
;  layer: 3  path: 26 points: 0/1
T0
G1 X83.71 Y18.80 Z0.6 F1200
; 
;  layer: 3  path: 26 points: 1/1
T0
G1 X115.00 Y18.80 Z0.6 E964.5100 F1200
; 
;  layer: 3  path: 25/108
; 
;  layer: 3  path: 25 points: 0/1
T0
G1 X-0.00 Y19.20 Z0.6 F1200
; 
;  layer: 3  path: 25 points: 1/1
T0
G1 X30.21 Y19.20 Z0.6 E966.6859 F1200
; 
;  layer: 3  path: 24/108
; 
;  layer: 3  path: 24 points: 0/1
T0
G1 X84.79 Y19.20 Z0.6 F1200
; 
;  layer: 3  path: 24 points: 1/1
T0
G1 X115.00 Y19.20 Z0.6 E970.0758 F1200
; 
;  layer: 3  path: 23/108
; 
;  layer: 3  path: 23 points: 0/1
T0
G1 X-0.00 Y19.60 Z0.6 F1200
; 
;  layer: 3  path: 23 points: 1/1
T0
G1 X29.13 Y19.60 Z0.6 E972.2201 F1200
; 
;  layer: 3  path: 22/108
; 
;  layer: 3  path: 22 points: 0/1
T0
G1 X85.87 Y19.60 Z0.6 F1200
; 
;  layer: 3  path: 22 points: 1/1
T0
G1 X115.00 Y19.60 Z0.6 E975.5893 F1200
; 
;  layer: 3  path: 21/108
; 
;  layer: 3  path: 21 points: 0/1
T0
G1 X-0.00 Y20.00 Z0.6 F1200
; 
;  layer: 3  path: 21 points: 1/1
T0
G1 X28.05 Y20.00 Z0.6 E977.7024 F1200
; 
;  layer: 3  path: 20/108
; 
;  layer: 3  path: 20 points: 0/1
T0
G1 X86.95 Y20.00 Z0.6 F1200
; 
;  layer: 3  path: 20 points: 1/1
T0
G1 X115.00 Y20.00 Z0.6 E981.0508 F1200
; 
;  layer: 3  path: 19/108
; 
;  layer: 3  path: 19 points: 0/1
T0
G1 X-0.00 Y20.40 Z0.6 F1200
; 
;  layer: 3  path: 19 points: 1/1
T0
G1 X26.97 Y20.40 Z0.6 E983.1329 F1200
; 
;  layer: 3  path: 18/108
; 
;  layer: 3  path: 18 points: 0/1
T0
G1 X88.03 Y20.40 Z0.6 F1200
; 
;  layer: 3  path: 18 points: 1/1
T0
G1 X115.00 Y20.40 Z0.6 E986.4606 F1200
; 
;  layer: 3  path: 17/108
; 
;  layer: 3  path: 17 points: 0/1
T0
G1 X-0.00 Y20.80 Z0.6 F1200
; 
;  layer: 3  path: 17 points: 1/1
T0
G1 X25.89 Y20.80 Z0.6 E988.5120 F1200
; 
;  layer: 3  path: 16/108
; 
;  layer: 3  path: 16 points: 0/1
T0
G1 X89.11 Y20.80 Z0.6 F1200
; 
;  layer: 3  path: 16 points: 1/1
T0
G1 X115.00 Y20.80 Z0.6 E991.8190 F1200
; 
;  layer: 3  path: 15/108
; 
;  layer: 3  path: 15 points: 0/1
T0
G1 X-0.00 Y21.20 Z0.6 F1200
; 
;  layer: 3  path: 15 points: 1/1
T0
G1 X24.82 Y21.20 Z0.6 E993.8401 F1200
; 
;  layer: 3  path: 14/108
; 
;  layer: 3  path: 14 points: 0/1
T0
G1 X90.18 Y21.20 Z0.6 F1200
; 
;  layer: 3  path: 14 points: 1/1
T0
G1 X115.00 Y21.20 Z0.6 E997.1265 F1200
; 
;  layer: 3  path: 13/108
; 
;  layer: 3  path: 13 points: 0/1
T0
G1 X-0.00 Y21.60 Z0.6 F1200
; 
;  layer: 3  path: 13 points: 1/1
T0
G1 X23.74 Y21.60 Z0.6 E999.1177 F1200
; 
;  layer: 3  path: 12/108
; 
;  layer: 3  path: 12 points: 0/1
T0
G1 X91.26 Y21.60 Z0.6 F1200
; 
;  layer: 3  path: 12 points: 1/1
T0
G1 X115.00 Y21.60 Z0.6 E1002.3834 F1200
; 
;  layer: 3  path: 11/108
; 
;  layer: 3  path: 11 points: 0/1
T0
G1 X-0.00 Y22.00 Z0.6 F1200
; 
;  layer: 3  path: 11 points: 1/1
T0
G1 X22.66 Y22.00 Z0.6 E1004.3450 F1200
; 
;  layer: 3  path: 10/108
; 
;  layer: 3  path: 10 points: 0/1
T0
G1 X92.34 Y22.00 Z0.6 F1200
; 
;  layer: 3  path: 10 points: 1/1
T0
G1 X115.00 Y22.00 Z0.6 E1007.5901 F1200
; 
;  layer: 3  path: 9/108
; 
;  layer: 3  path: 9 points: 0/1
T0
G1 X-0.00 Y22.40 Z0.6 F1200
; 
;  layer: 3  path: 9 points: 1/1
T0
G1 X21.58 Y22.40 Z0.6 E1009.5224 F1200
; 
;  layer: 3  path: 8/108
; 
;  layer: 3  path: 8 points: 0/1
T0
G1 X93.42 Y22.40 Z0.6 F1200
; 
;  layer: 3  path: 8 points: 1/1
T0
G1 X115.00 Y22.40 Z0.6 E1012.7469 F1200
; 
;  layer: 3  path: 7/108
; 
;  layer: 3  path: 7 points: 0/1
T0
G1 X-0.00 Y22.80 Z0.6 F1200
; 
;  layer: 3  path: 7 points: 1/1
T0
G1 X20.50 Y22.80 Z0.6 E1014.6503 F1200
; 
;  layer: 3  path: 6/108
; 
;  layer: 3  path: 6 points: 0/1
T0
G1 X94.50 Y22.80 Z0.6 F1200
; 
;  layer: 3  path: 6 points: 1/1
T0
G1 X115.00 Y22.80 Z0.6 E1017.8542 F1200
; 
;  layer: 3  path: 5/108
; 
;  layer: 3  path: 5 points: 0/1
T0
G1 X-0.00 Y23.20 Z0.6 F1200
; 
;  layer: 3  path: 5 points: 1/1
T0
G1 X19.42 Y23.20 Z0.6 E1019.7292 F1200
; 
;  layer: 3  path: 4/108
; 
;  layer: 3  path: 4 points: 0/1
T0
G1 X95.58 Y23.20 Z0.6 F1200
; 
;  layer: 3  path: 4 points: 1/1
T0
G1 X115.00 Y23.20 Z0.6 E1022.9125 F1200
; 
;  layer: 3  path: 3/108
; 
;  layer: 3  path: 3 points: 0/1
T0
G1 X-0.00 Y23.60 Z0.6 F1200
; 
;  layer: 3  path: 3 points: 1/1
T0
G1 X18.34 Y23.60 Z0.6 E1024.7596 F1200
; 
;  layer: 3  path: 2/108
; 
;  layer: 3  path: 2 points: 0/1
T0
G1 X96.66 Y23.60 Z0.6 F1200
; 
;  layer: 3  path: 2 points: 1/1
T0
G1 X115.00 Y23.60 Z0.6 E1027.9223 F1200
; 
;  layer: 3  path: 1/108
; 
;  layer: 3  path: 1 points: 0/1
T0
G1 X-0.00 Y24.00 Z0.6 F1200
; 
;  layer: 3  path: 1 points: 1/1
T0
G1 X17.26 Y24.00 Z0.6 E1029.7418 F1200
; 
;  layer: 3  path: 0/108
; 
;  layer: 3  path: 0 points: 0/1
T0
G1 X97.74 Y24.00 Z0.6 F1200
; 
;  layer: 3  path: 0 points: 1/1
T0
G1 X115.00 Y24.00 Z0.6 E1032.8840 F1200
; 
; 
;  layer: 4/10
; 
; 
;  layer: 4  path: 108/108
; 
;  layer: 4  path: 108 points: 0/1
T0
G1 X-0.00 Y-0.00 Z0.8 F1200
; 
;  layer: 4  path: 108 points: 1/1
T0
G1 X17.26 Y-0.00 Z0.8 E1035.7563 F1200
; 
;  layer: 4  path: 107/108
; 
;  layer: 4  path: 107 points: 0/1
T0
G1 X115.00 Y-0.00 Z0.8 F1200
; 
;  layer: 4  path: 107 points: 1/1
T0
G1 X97.74 Y-0.00 Z0.8 E1039.1267 F1200
; 
;  layer: 4  path: 106/108
; 
;  layer: 4  path: 106 points: 0/1
T0
G1 X-0.00 Y0.40 Z0.8 F1200
; 
;  layer: 4  path: 106 points: 1/1
T0
G1 X18.34 Y0.40 Z0.8 E1041.9879 F1200
; 
;  layer: 4  path: 105/108
; 
;  layer: 4  path: 105 points: 0/1
T0
G1 X96.66 Y0.40 Z0.8 F1200
; 
;  layer: 4  path: 105 points: 1/1
T0
G1 X115.00 Y0.40 Z0.8 E1045.8321 F1200
; 
;  layer: 4  path: 104/108
; 
;  layer: 4  path: 104 points: 0/1
T0
G1 X-0.00 Y0.80 Z0.8 F1200
; 
;  layer: 4  path: 104 points: 1/1
T0
G1 X19.42 Y0.80 Z0.8 E1048.6827 F1200
; 
;  layer: 4  path: 103/108
; 
;  layer: 4  path: 103 points: 0/1
T0
G1 X95.58 Y0.80 Z0.8 F1200
; 
;  layer: 4  path: 103 points: 1/1
T0
G1 X115.00 Y0.80 Z0.8 E1052.5224 F1200
; 
;  layer: 4  path: 102/108
; 
;  layer: 4  path: 102 points: 0/1
T0
G1 X-0.00 Y1.20 Z0.8 F1200
; 
;  layer: 4  path: 102 points: 1/1
T0
G1 X20.50 Y1.20 Z0.8 E1055.3630 F1200
; 
;  layer: 4  path: 101/108
; 
;  layer: 4  path: 101 points: 0/1
T0
G1 X94.50 Y1.20 Z0.8 F1200
; 
;  layer: 4  path: 101 points: 1/1
T0
G1 X115.00 Y1.20 Z0.8 E1059.1984 F1200
; 
;  layer: 4  path: 100/108
; 
;  layer: 4  path: 100 points: 0/1
T0
G1 X-0.00 Y1.60 Z0.8 F1200
; 
;  layer: 4  path: 100 points: 1/1
T0
G1 X21.58 Y1.60 Z0.8 E1062.0295 F1200
; 
;  layer: 4  path: 99/108
; 
;  layer: 4  path: 99 points: 0/1
T0
G1 X93.42 Y1.60 Z0.8 F1200
; 
;  layer: 4  path: 99 points: 1/1
T0
G1 X115.00 Y1.60 Z0.8 E1065.8607 F1200
; 
;  layer: 4  path: 98/108
; 
;  layer: 4  path: 98 points: 0/1
T0
G1 X-0.00 Y2.00 Z0.8 F1200
; 
;  layer: 4  path: 98 points: 1/1
T0
G1 X22.66 Y2.00 Z0.8 E1068.6827 F1200
; 
;  layer: 4  path: 97/108
; 
;  layer: 4  path: 97 points: 0/1
T0
G1 X92.34 Y2.00 Z0.8 F1200
; 
;  layer: 4  path: 97 points: 1/1
T0
G1 X115.00 Y2.00 Z0.8 E1072.5099 F1200
; 
;  layer: 4  path: 96/108
; 
;  layer: 4  path: 96 points: 0/1
T0
G1 X-0.00 Y2.40 Z0.8 F1200
; 
;  layer: 4  path: 96 points: 1/1
T0
G1 X23.74 Y2.40 Z0.8 E1075.3234 F1200
; 
;  layer: 4  path: 95/108
; 
;  layer: 4  path: 95 points: 0/1
T0
G1 X91.26 Y2.40 Z0.8 F1200
; 
;  layer: 4  path: 95 points: 1/1
T0
G1 X115.00 Y2.40 Z0.8 E1079.1466 F1200
; 
;  layer: 4  path: 94/108
; 
;  layer: 4  path: 94 points: 0/1
T0
G1 X-0.00 Y2.80 Z0.8 F1200
; 
;  layer: 4  path: 94 points: 1/1
T0
G1 X24.82 Y2.80 Z0.8 E1081.9523 F1200
; 
;  layer: 4  path: 93/108
; 
;  layer: 4  path: 93 points: 0/1
T0
G1 X90.18 Y2.80 Z0.8 F1200
; 
;  layer: 4  path: 93 points: 1/1
T0
G1 X115.00 Y2.80 Z0.8 E1085.7717 F1200
; 
;  layer: 4  path: 92/108
; 
;  layer: 4  path: 92 points: 0/1
T0
G1 X-0.00 Y3.20 Z0.8 F1200
; 
;  layer: 4  path: 92 points: 1/1
T0
G1 X25.89 Y3.20 Z0.8 E1088.5700 F1200
; 
;  layer: 4  path: 91/108
; 
;  layer: 4  path: 91 points: 0/1
T0
G1 X89.11 Y3.20 Z0.8 F1200
; 
;  layer: 4  path: 91 points: 1/1
T0
G1 X115.00 Y3.20 Z0.8 E1092.3856 F1200
; 
;  layer: 4  path: 90/108
; 
;  layer: 4  path: 90 points: 0/1
T0
G1 X0.00 Y3.60 Z0.8 F1200
; 
;  layer: 4  path: 90 points: 1/1
T0
G1 X26.97 Y3.60 Z0.8 E1095.1772 F1200
; 
;  layer: 4  path: 89/108
; 
;  layer: 4  path: 89 points: 0/1
T0
G1 X88.03 Y3.60 Z0.8 F1200
; 
;  layer: 4  path: 89 points: 1/1
T0
G1 X115.00 Y3.60 Z0.8 E1098.9892 F1200
; 
;  layer: 4  path: 88/108
; 
;  layer: 4  path: 88 points: 0/1
T0
G1 X-0.00 Y4.00 Z0.8 F1200
; 
;  layer: 4  path: 88 points: 1/1
T0
G1 X28.05 Y4.00 Z0.8 E1101.7745 F1200
; 
;  layer: 4  path: 87/108
; 
;  layer: 4  path: 87 points: 0/0
T0
G1 X27.00 Y3.80 Z0.8 F1200
; 
;  layer: 4  path: 86/108
; 
;  layer: 4  path: 86 points: 0/1
T0
G1 X86.95 Y4.00 Z0.8 F1200
; 
;  layer: 4  path: 86 points: 1/1
T0
G1 X115.00 Y4.00 Z0.8 E1105.5831 F1200
; 
;  layer: 4  path: 85/108
; 
;  layer: 4  path: 85 points: 0/1
T0
G1 X-0.00 Y4.40 Z0.8 F1200
; 
;  layer: 4  path: 85 points: 1/1
T0
G1 X29.13 Y4.40 Z0.8 E1108.3628 F1200
; 
;  layer: 4  path: 84/108
; 
;  layer: 4  path: 84 points: 0/1
T0
G1 X85.87 Y4.40 Z0.8 F1200
; 
;  layer: 4  path: 84 points: 1/1
T0
G1 X115.00 Y4.40 Z0.8 E1112.1680 F1200
; 
;  layer: 4  path: 83/108
; 
;  layer: 4  path: 83 points: 0/1
T0
G1 X-0.00 Y4.80 Z0.8 F1200
; 
;  layer: 4  path: 83 points: 1/1
T0
G1 X30.21 Y4.80 Z0.8 E1114.9426 F1200
; 
;  layer: 4  path: 82/108
; 
;  layer: 4  path: 82 points: 0/1
T0
G1 X84.79 Y4.80 Z0.8 F1200
; 
;  layer: 4  path: 82 points: 1/1
T0
G1 X115.00 Y4.80 Z0.8 E1118.7446 F1200
; 
;  layer: 4  path: 81/108
; 
;  layer: 4  path: 81 points: 0/1
T0
G1 X-0.00 Y5.20 Z0.8 F1200
; 
;  layer: 4  path: 81 points: 1/1
T0
G1 X31.29 Y5.20 Z0.8 E1121.5147 F1200
; 
;  layer: 4  path: 80/108
; 
;  layer: 4  path: 80 points: 0/0
T0
G1 X-0.00 Y5.93 Z0.8 F1200
; 
;  layer: 4  path: 79/108
; 
;  layer: 4  path: 79 points: 0/1
T0
G1 X83.71 Y5.20 Z0.8 F1200
; 
;  layer: 4  path: 79 points: 1/1
T0
G1 X115.00 Y5.20 Z0.8 E1125.3136 F1200
; 
;  layer: 4  path: 78/108
; 
;  layer: 4  path: 78 points: 0/1
T0
G1 X-0.00 Y5.60 Z0.8 F1200
; 
;  layer: 4  path: 78 points: 1/1
T0
G1 X32.37 Y5.60 Z0.8 E1128.0797 F1200
; 
;  layer: 4  path: 77/108
; 
;  layer: 4  path: 77 points: 0/1
T0
G1 X82.63 Y5.60 Z0.8 F1200
; 
;  layer: 4  path: 77 points: 1/1
T0
G1 X115.00 Y5.60 Z0.8 E1131.8756 F1200
; 
;  layer: 4  path: 76/108
; 
;  layer: 4  path: 76 points: 0/1
T0
G1 X-0.00 Y6.00 Z0.8 F1200
; 
;  layer: 4  path: 76 points: 1/1
T0
G1 X33.45 Y6.00 Z0.8 E1134.6384 F1200
; 
;  layer: 4  path: 75/108
; 
;  layer: 4  path: 75 points: 0/1
T0
G1 X81.55 Y6.00 Z0.8 F1200
; 
;  layer: 4  path: 75 points: 1/1
T0
G1 X115.00 Y6.00 Z0.8 E1138.4315 F1200
; 
;  layer: 4  path: 74/108
; 
;  layer: 4  path: 74 points: 0/1
T0
G1 X-0.00 Y6.40 Z0.8 F1200
; 
;  layer: 4  path: 74 points: 1/1
T0
G1 X34.53 Y6.40 Z0.8 E1141.1916 F1200
; 
;  layer: 4  path: 73/108
; 
;  layer: 4  path: 73 points: 0/1
T0
G1 X80.47 Y6.40 Z0.8 F1200
; 
;  layer: 4  path: 73 points: 1/1
T0
G1 X115.00 Y6.40 Z0.8 E1144.9819 F1200
; 
;  layer: 4  path: 72/108
; 
;  layer: 4  path: 72 points: 0/1
T0
G1 X-0.00 Y6.80 Z0.8 F1200
; 
;  layer: 4  path: 72 points: 1/1
T0
G1 X35.61 Y6.80 Z0.8 E1147.7398 F1200
; 
;  layer: 4  path: 71/108
; 
;  layer: 4  path: 71 points: 0/1
T0
G1 X79.39 Y6.80 Z0.8 F1200
; 
;  layer: 4  path: 71 points: 1/1
T0
G1 X115.00 Y6.80 Z0.8 E1151.5276 F1200
; 
;  layer: 4  path: 70/108
; 
;  layer: 4  path: 70 points: 0/1
T0
G1 X-0.00 Y7.20 Z0.8 F1200
; 
;  layer: 4  path: 70 points: 1/1
T0
G1 X36.68 Y7.20 Z0.8 E1154.2838 F1200
; 
;  layer: 4  path: 69/108
; 
;  layer: 4  path: 69 points: 0/1
T0
G1 X78.32 Y7.20 Z0.8 F1200
; 
;  layer: 4  path: 69 points: 1/1
T0
G1 X115.00 Y7.20 Z0.8 E1158.0690 F1200
; 
;  layer: 4  path: 68/108
; 
;  layer: 4  path: 68 points: 0/1
T0
G1 X-0.00 Y7.60 Z0.8 F1200
; 
;  layer: 4  path: 68 points: 1/1
T0
G1 X37.76 Y7.60 Z0.8 E1160.8242 F1200
; 
;  layer: 4  path: 67/108
; 
;  layer: 4  path: 67 points: 0/1
T0
G1 X77.24 Y7.60 Z0.8 F1200
; 
;  layer: 4  path: 67 points: 1/1
T0
G1 X115.00 Y7.60 Z0.8 E1164.6071 F1200
; 
;  layer: 4  path: 66/108
; 
;  layer: 4  path: 66 points: 0/1
T0
G1 X-0.00 Y8.00 Z0.8 F1200
; 
;  layer: 4  path: 66 points: 1/1
T0
G1 X38.84 Y8.00 Z0.8 E1167.3618 F1200
; 
;  layer: 4  path: 65/108
; 
;  layer: 4  path: 65 points: 0/1
T0
G1 X76.16 Y8.00 Z0.8 F1200
; 
;  layer: 4  path: 65 points: 1/1
T0
G1 X115.00 Y8.00 Z0.8 E1171.1425 F1200
; 
;  layer: 4  path: 64/108
; 
;  layer: 4  path: 64 points: 0/1
T0
G1 X-0.00 Y8.40 Z0.8 F1200
; 
;  layer: 4  path: 64 points: 1/1
T0
G1 X39.92 Y8.40 Z0.8 E1173.8974 F1200
; 
;  layer: 4  path: 63/108
; 
;  layer: 4  path: 63 points: 0/1
T0
G1 X75.08 Y8.40 Z0.8 F1200
; 
;  layer: 4  path: 63 points: 1/1
T0
G1 X115.00 Y8.40 Z0.8 E1177.6760 F1200
; 
;  layer: 4  path: 62/108
; 
;  layer: 4  path: 62 points: 0/1
T0
G1 X-0.00 Y8.80 Z0.8 F1200
; 
;  layer: 4  path: 62 points: 1/1
T0
G1 X41.00 Y8.80 Z0.8 E1180.4316 F1200
; 
;  layer: 4  path: 61/108
; 
;  layer: 4  path: 61 points: 0/1
T0
G1 X74.00 Y8.80 Z0.8 F1200
; 
;  layer: 4  path: 61 points: 1/1
T0
G1 X115.00 Y8.80 Z0.8 E1184.2083 F1200
; 
;  layer: 4  path: 60/108
; 
;  layer: 4  path: 60 points: 0/1
T0
G1 X-0.00 Y9.20 Z0.8 F1200
; 
;  layer: 4  path: 60 points: 1/1
T0
G1 X115.00 Y9.20 Z0.8 E1188.6747 F1200
; 
;  layer: 4  path: 59/108
; 
;  layer: 4  path: 59 points: 0/1
T0
G1 X-0.00 Y9.60 Z0.8 F1200
; 
;  layer: 4  path: 59 points: 1/1
T0
G1 X115.00 Y9.60 Z0.8 E1193.1314 F1200
; 
;  layer: 4  path: 58/108
; 
;  layer: 4  path: 58 points: 0/1
T0
G1 X-0.00 Y10.00 Z0.8 F1200
; 
;  layer: 4  path: 58 points: 1/1
T0
G1 X115.00 Y10.00 Z0.8 E1197.5785 F1200
; 
;  layer: 4  path: 57/108
; 
;  layer: 4  path: 57 points: 0/1
T0
G1 X-0.00 Y10.40 Z0.8 F1200
; 
;  layer: 4  path: 57 points: 1/1
T0
G1 X115.00 Y10.40 Z0.8 E1202.0160 F1200
; 
;  layer: 4  path: 56/108
; 
;  layer: 4  path: 56 points: 0/1
T0
G1 X-0.00 Y10.80 Z0.8 F1200
; 
;  layer: 4  path: 56 points: 1/1
T0
G1 X115.00 Y10.80 Z0.8 E1206.4439 F1200
; 
;  layer: 4  path: 55/108
; 
;  layer: 4  path: 55 points: 0/1
T0
G1 X-0.00 Y11.20 Z0.8 F1200
; 
;  layer: 4  path: 55 points: 1/1
T0
G1 X115.00 Y11.20 Z0.8 E1210.8624 F1200
; 
;  layer: 4  path: 54/108
; 
;  layer: 4  path: 54 points: 0/1
T0
G1 X-0.00 Y11.60 Z0.8 F1200
; 
;  layer: 4  path: 54 points: 1/1
T0
G1 X115.00 Y11.60 Z0.8 E1215.2714 F1200
; 
;  layer: 4  path: 53/108
; 
;  layer: 4  path: 53 points: 0/1
T0
G1 X-0.00 Y12.00 Z0.8 F1200
; 
;  layer: 4  path: 53 points: 1/1
T0
G1 X115.00 Y12.00 Z0.8 E1219.6710 F1200
; 
;  layer: 4  path: 52/108
; 
;  layer: 4  path: 52 points: 0/1
T0
G1 X-0.00 Y12.40 Z0.8 F1200
; 
;  layer: 4  path: 52 points: 1/1
T0
G1 X115.00 Y12.40 Z0.8 E1224.0613 F1200
; 
;  layer: 4  path: 51/108
; 
;  layer: 4  path: 51 points: 0/1
T0
G1 X-0.00 Y12.80 Z0.8 F1200
; 
;  layer: 4  path: 51 points: 1/1
T0
G1 X115.00 Y12.80 Z0.8 E1228.4424 F1200
; 
;  layer: 4  path: 50/108
; 
;  layer: 4  path: 50 points: 0/1
T0
G1 X-0.00 Y13.20 Z0.8 F1200
; 
;  layer: 4  path: 50 points: 1/1
T0
G1 X115.00 Y13.20 Z0.8 E1232.8142 F1200
; 
;  layer: 4  path: 49/108
; 
;  layer: 4  path: 49 points: 0/1
T0
G1 X-0.00 Y13.60 Z0.8 F1200
; 
;  layer: 4  path: 49 points: 1/1
T0
G1 X115.00 Y13.60 Z0.8 E1237.1768 F1200
; 
;  layer: 4  path: 48/108
; 
;  layer: 4  path: 48 points: 0/1
T0
G1 X-0.00 Y14.00 Z0.8 F1200
; 
;  layer: 4  path: 48 points: 1/1
T0
G1 X115.00 Y14.00 Z0.8 E1241.5304 F1200
; 
;  layer: 4  path: 47/108
; 
;  layer: 4  path: 47 points: 0/1
T0
G1 X-0.00 Y14.40 Z0.8 F1200
; 
;  layer: 4  path: 47 points: 1/1
T0
G1 X115.00 Y14.40 Z0.8 E1245.8748 F1200
; 
;  layer: 4  path: 46/108
; 
;  layer: 4  path: 46 points: 0/1
T0
G1 X-0.00 Y14.80 Z0.8 F1200
; 
;  layer: 4  path: 46 points: 1/1
T0
G1 X115.00 Y14.80 Z0.8 E1250.2103 F1200
; 
;  layer: 4  path: 45/108
; 
;  layer: 4  path: 45 points: 0/1
T0
G1 X-0.00 Y15.20 Z0.8 F1200
; 
;  layer: 4  path: 45 points: 1/1
T0
G1 X41.00 Y15.20 Z0.8 E1252.7155 F1200
; 
;  layer: 4  path: 44/108
; 
;  layer: 4  path: 44 points: 0/1
T0
G1 X74.00 Y15.20 Z0.8 F1200
; 
;  layer: 4  path: 44 points: 1/1
T0
G1 X115.00 Y15.20 Z0.8 E1256.3136 F1200
; 
;  layer: 4  path: 43/108
; 
;  layer: 4  path: 43 points: 0/1
T0
G1 X-0.00 Y15.60 Z0.8 F1200
; 
;  layer: 4  path: 43 points: 1/1
T0
G1 X39.92 Y15.60 Z0.8 E1258.7849 F1200
; 
;  layer: 4  path: 42/108
; 
;  layer: 4  path: 42 points: 0/1
T0
G1 X75.08 Y15.60 Z0.8 F1200
; 
;  layer: 4  path: 42 points: 1/1
T0
G1 X115.00 Y15.60 Z0.8 E1262.3620 F1200
; 
;  layer: 4  path: 41/108
; 
;  layer: 4  path: 41 points: 0/1
T0
G1 X-0.00 Y16.00 Z0.8 F1200
; 
;  layer: 4  path: 41 points: 1/1
T0
G1 X38.84 Y16.00 Z0.8 E1264.7996 F1200
; 
;  layer: 4  path: 40/108
; 
;  layer: 4  path: 40 points: 0/1
T0
G1 X76.16 Y16.00 Z0.8 F1200
; 
;  layer: 4  path: 40 points: 1/1
T0
G1 X115.00 Y16.00 Z0.8 E1268.3559 F1200
; 
;  layer: 4  path: 39/108
; 
;  layer: 4  path: 39 points: 0/1
T0
G1 X-0.00 Y16.40 Z0.8 F1200
; 
;  layer: 4  path: 39 points: 1/1
T0
G1 X37.76 Y16.40 Z0.8 E1270.7600 F1200
; 
;  layer: 4  path: 38/108
; 
;  layer: 4  path: 38 points: 0/1
T0
G1 X77.24 Y16.40 Z0.8 F1200
; 
;  layer: 4  path: 38 points: 1/1
T0
G1 X115.00 Y16.40 Z0.8 E1274.2955 F1200
; 
;  layer: 4  path: 37/108
; 
;  layer: 4  path: 37 points: 0/1
T0
G1 X-0.00 Y16.80 Z0.8 F1200
; 
;  layer: 4  path: 37 points: 1/1
T0
G1 X36.68 Y16.80 Z0.8 E1276.6663 F1200
; 
;  layer: 4  path: 36/108
; 
;  layer: 4  path: 36 points: 0/1
T0
G1 X78.32 Y16.80 Z0.8 F1200
; 
;  layer: 4  path: 36 points: 1/1
T0
G1 X115.00 Y16.80 Z0.8 E1280.1809 F1200
; 
;  layer: 4  path: 35/108
; 
;  layer: 4  path: 35 points: 0/1
T0
G1 X-0.00 Y17.20 Z0.8 F1200
; 
;  layer: 4  path: 35 points: 1/1
T0
G1 X35.61 Y17.20 Z0.8 E1282.5186 F1200
; 
;  layer: 4  path: 34/108
; 
;  layer: 4  path: 34 points: 0/1
T0
G1 X79.39 Y17.20 Z0.8 F1200
; 
;  layer: 4  path: 34 points: 1/1
T0
G1 X115.00 Y17.20 Z0.8 E1286.0125 F1200
; 
;  layer: 4  path: 33/108
; 
;  layer: 4  path: 33 points: 0/1
T0
G1 X-0.00 Y17.60 Z0.8 F1200
; 
;  layer: 4  path: 33 points: 1/1
T0
G1 X34.53 Y17.60 Z0.8 E1288.3174 F1200
; 
;  layer: 4  path: 32/108
; 
;  layer: 4  path: 32 points: 0/1
T0
G1 X80.47 Y17.60 Z0.8 F1200
; 
;  layer: 4  path: 32 points: 1/1
T0
G1 X115.00 Y17.60 Z0.8 E1291.7904 F1200
; 
;  layer: 4  path: 31/108
; 
;  layer: 4  path: 31 points: 0/1
T0
G1 X-0.00 Y18.00 Z0.8 F1200
; 
;  layer: 4  path: 31 points: 1/1
T0
G1 X33.45 Y18.00 Z0.8 E1294.0627 F1200
; 
;  layer: 4  path: 30/108
; 
;  layer: 4  path: 30 points: 0/1
T0
G1 X81.55 Y18.00 Z0.8 F1200
; 
;  layer: 4  path: 30 points: 1/1
T0
G1 X115.00 Y18.00 Z0.8 E1297.5149 F1200
; 
;  layer: 4  path: 29/108
; 
;  layer: 4  path: 29 points: 0/1
T0
G1 X-0.00 Y18.40 Z0.8 F1200
; 
;  layer: 4  path: 29 points: 1/1
T0
G1 X32.37 Y18.40 Z0.8 E1299.7548 F1200
; 
;  layer: 4  path: 28/108
; 
;  layer: 4  path: 28 points: 0/1
T0
G1 X82.63 Y18.40 Z0.8 F1200
; 
;  layer: 4  path: 28 points: 1/1
T0
G1 X115.00 Y18.40 Z0.8 E1303.1862 F1200
; 
;  layer: 4  path: 27/108
; 
;  layer: 4  path: 27 points: 0/1
T0
G1 X-0.00 Y18.80 Z0.8 F1200
; 
;  layer: 4  path: 27 points: 1/1
T0
G1 X31.29 Y18.80 Z0.8 E1305.3940 F1200
; 
;  layer: 4  path: 26/108
; 
;  layer: 4  path: 26 points: 0/1
T0
G1 X83.71 Y18.80 Z0.8 F1200
; 
;  layer: 4  path: 26 points: 1/1
T0
G1 X115.00 Y18.80 Z0.8 E1308.8046 F1200
; 
;  layer: 4  path: 25/108
; 
;  layer: 4  path: 25 points: 0/1
T0
G1 X-0.00 Y19.20 Z0.8 F1200
; 
;  layer: 4  path: 25 points: 1/1
T0
G1 X30.21 Y19.20 Z0.8 E1310.9805 F1200
; 
;  layer: 4  path: 24/108
; 
;  layer: 4  path: 24 points: 0/1
T0
G1 X84.79 Y19.20 Z0.8 F1200
; 
;  layer: 4  path: 24 points: 1/1
T0
G1 X115.00 Y19.20 Z0.8 E1314.3704 F1200
; 
;  layer: 4  path: 23/108
; 
;  layer: 4  path: 23 points: 0/1
T0
G1 X-0.00 Y19.60 Z0.8 F1200
; 
;  layer: 4  path: 23 points: 1/1
T0
G1 X29.13 Y19.60 Z0.8 E1316.5148 F1200
; 
;  layer: 4  path: 22/108
; 
;  layer: 4  path: 22 points: 0/1
T0
G1 X85.87 Y19.60 Z0.8 F1200
; 
;  layer: 4  path: 22 points: 1/1
T0
G1 X115.00 Y19.60 Z0.8 E1319.8839 F1200
; 
;  layer: 4  path: 21/108
; 
;  layer: 4  path: 21 points: 0/1
T0
G1 X-0.00 Y20.00 Z0.8 F1200
; 
;  layer: 4  path: 21 points: 1/1
T0
G1 X28.05 Y20.00 Z0.8 E1321.9970 F1200
; 
;  layer: 4  path: 20/108
; 
;  layer: 4  path: 20 points: 0/1
T0
G1 X86.95 Y20.00 Z0.8 F1200
; 
;  layer: 4  path: 20 points: 1/1
T0
G1 X115.00 Y20.00 Z0.8 E1325.3454 F1200
; 
;  layer: 4  path: 19/108
; 
;  layer: 4  path: 19 points: 0/1
T0
G1 X-0.00 Y20.40 Z0.8 F1200
; 
;  layer: 4  path: 19 points: 1/1
T0
G1 X26.97 Y20.40 Z0.8 E1327.4275 F1200
; 
;  layer: 4  path: 18/108
; 
;  layer: 4  path: 18 points: 0/1
T0
G1 X88.03 Y20.40 Z0.8 F1200
; 
;  layer: 4  path: 18 points: 1/1
T0
G1 X115.00 Y20.40 Z0.8 E1330.7552 F1200
; 
;  layer: 4  path: 17/108
; 
;  layer: 4  path: 17 points: 0/1
T0
G1 X-0.00 Y20.80 Z0.8 F1200
; 
;  layer: 4  path: 17 points: 1/1
T0
G1 X25.89 Y20.80 Z0.8 E1332.8067 F1200
; 
;  layer: 4  path: 16/108
; 
;  layer: 4  path: 16 points: 0/1
T0
G1 X89.11 Y20.80 Z0.8 F1200
; 
;  layer: 4  path: 16 points: 1/1
T0
G1 X115.00 Y20.80 Z0.8 E1336.1137 F1200
; 
;  layer: 4  path: 15/108
; 
;  layer: 4  path: 15 points: 0/1
T0
G1 X-0.00 Y21.20 Z0.8 F1200
; 
;  layer: 4  path: 15 points: 1/1
T0
G1 X24.82 Y21.20 Z0.8 E1338.1348 F1200
; 
;  layer: 4  path: 14/108
; 
;  layer: 4  path: 14 points: 0/1
T0
G1 X90.18 Y21.20 Z0.8 F1200
; 
;  layer: 4  path: 14 points: 1/1
T0
G1 X115.00 Y21.20 Z0.8 E1341.4212 F1200
; 
;  layer: 4  path: 13/108
; 
;  layer: 4  path: 13 points: 0/1
T0
G1 X-0.00 Y21.60 Z0.8 F1200
; 
;  layer: 4  path: 13 points: 1/1
T0
G1 X23.74 Y21.60 Z0.8 E1343.4123 F1200
; 
;  layer: 4  path: 12/108
; 
;  layer: 4  path: 12 points: 0/1
T0
G1 X91.26 Y21.60 Z0.8 F1200
; 
;  layer: 4  path: 12 points: 1/1
T0
G1 X115.00 Y21.60 Z0.8 E1346.6781 F1200
; 
;  layer: 4  path: 11/108
; 
;  layer: 4  path: 11 points: 0/1
T0
G1 X-0.00 Y22.00 Z0.8 F1200
; 
;  layer: 4  path: 11 points: 1/1
T0
G1 X22.66 Y22.00 Z0.8 E1348.6396 F1200
; 
;  layer: 4  path: 10/108
; 
;  layer: 4  path: 10 points: 0/1
T0
G1 X92.34 Y22.00 Z0.8 F1200
; 
;  layer: 4  path: 10 points: 1/1
T0
G1 X115.00 Y22.00 Z0.8 E1351.8847 F1200
; 
;  layer: 4  path: 9/108
; 
;  layer: 4  path: 9 points: 0/1
T0
G1 X-0.00 Y22.40 Z0.8 F1200
; 
;  layer: 4  path: 9 points: 1/1
T0
G1 X21.58 Y22.40 Z0.8 E1353.8170 F1200
; 
;  layer: 4  path: 8/108
; 
;  layer: 4  path: 8 points: 0/1
T0
G1 X93.42 Y22.40 Z0.8 F1200
; 
;  layer: 4  path: 8 points: 1/1
T0
G1 X115.00 Y22.40 Z0.8 E1357.0415 F1200
; 
;  layer: 4  path: 7/108
; 
;  layer: 4  path: 7 points: 0/1
T0
G1 X-0.00 Y22.80 Z0.8 F1200
; 
;  layer: 4  path: 7 points: 1/1
T0
G1 X20.50 Y22.80 Z0.8 E1358.9450 F1200
; 
;  layer: 4  path: 6/108
; 
;  layer: 4  path: 6 points: 0/1
T0
G1 X94.50 Y22.80 Z0.8 F1200
; 
;  layer: 4  path: 6 points: 1/1
T0
G1 X115.00 Y22.80 Z0.8 E1362.1489 F1200
; 
;  layer: 4  path: 5/108
; 
;  layer: 4  path: 5 points: 0/1
T0
G1 X-0.00 Y23.20 Z0.8 F1200
; 
;  layer: 4  path: 5 points: 1/1
T0
G1 X19.42 Y23.20 Z0.8 E1364.0239 F1200
; 
;  layer: 4  path: 4/108
; 
;  layer: 4  path: 4 points: 0/1
T0
G1 X95.58 Y23.20 Z0.8 F1200
; 
;  layer: 4  path: 4 points: 1/1
T0
G1 X115.00 Y23.20 Z0.8 E1367.2072 F1200
; 
;  layer: 4  path: 3/108
; 
;  layer: 4  path: 3 points: 0/1
T0
G1 X-0.00 Y23.60 Z0.8 F1200
; 
;  layer: 4  path: 3 points: 1/1
T0
G1 X18.34 Y23.60 Z0.8 E1369.0542 F1200
; 
;  layer: 4  path: 2/108
; 
;  layer: 4  path: 2 points: 0/1
T0
G1 X96.66 Y23.60 Z0.8 F1200
; 
;  layer: 4  path: 2 points: 1/1
T0
G1 X115.00 Y23.60 Z0.8 E1372.2169 F1200
; 
;  layer: 4  path: 1/108
; 
;  layer: 4  path: 1 points: 0/1
T0
G1 X-0.00 Y24.00 Z0.8 F1200
; 
;  layer: 4  path: 1 points: 1/1
T0
G1 X17.26 Y24.00 Z0.8 E1374.0365 F1200
; 
;  layer: 4  path: 0/108
; 
;  layer: 4  path: 0 points: 0/1
T0
G1 X97.74 Y24.00 Z0.8 F1200
; 
;  layer: 4  path: 0 points: 1/1
T0
G1 X115.00 Y24.00 Z0.8 E1377.1786 F1200
; 
; 
;  layer: 5/10
; 
; 
;  layer: 5  path: 108/108
; 
;  layer: 5  path: 108 points: 0/1
T0
G1 X-0.00 Y-0.00 Z1.0 F1200
; 
;  layer: 5  path: 108 points: 1/1
T0
G1 X17.26 Y-0.00 Z1.0 E1380.0510 F1200
; 
;  layer: 5  path: 107/108
; 
;  layer: 5  path: 107 points: 0/1
T0
G1 X115.00 Y-0.00 Z1.0 F1200
; 
;  layer: 5  path: 107 points: 1/1
T0
G1 X97.74 Y-0.00 Z1.0 E1383.4213 F1200
; 
;  layer: 5  path: 106/108
; 
;  layer: 5  path: 106 points: 0/1
T0
G1 X-0.00 Y0.40 Z1.0 F1200
; 
;  layer: 5  path: 106 points: 1/1
T0
G1 X18.34 Y0.40 Z1.0 E1386.2825 F1200
; 
;  layer: 5  path: 105/108
; 
;  layer: 5  path: 105 points: 0/1
T0
G1 X96.66 Y0.40 Z1.0 F1200
; 
;  layer: 5  path: 105 points: 1/1
T0
G1 X115.00 Y0.40 Z1.0 E1390.1267 F1200
; 
;  layer: 5  path: 104/108
; 
;  layer: 5  path: 104 points: 0/1
T0
G1 X-0.00 Y0.80 Z1.0 F1200
; 
;  layer: 5  path: 104 points: 1/1
T0
G1 X19.42 Y0.80 Z1.0 E1392.9774 F1200
; 
;  layer: 5  path: 103/108
; 
;  layer: 5  path: 103 points: 0/1
T0
G1 X95.58 Y0.80 Z1.0 F1200
; 
;  layer: 5  path: 103 points: 1/1
T0
G1 X115.00 Y0.80 Z1.0 E1396.8171 F1200
; 
;  layer: 5  path: 102/108
; 
;  layer: 5  path: 102 points: 0/1
T0
G1 X-0.00 Y1.20 Z1.0 F1200
; 
;  layer: 5  path: 102 points: 1/1
T0
G1 X20.50 Y1.20 Z1.0 E1399.6577 F1200
; 
;  layer: 5  path: 101/108
; 
;  layer: 5  path: 101 points: 0/1
T0
G1 X94.50 Y1.20 Z1.0 F1200
; 
;  layer: 5  path: 101 points: 1/1
T0
G1 X115.00 Y1.20 Z1.0 E1403.4931 F1200
; 
;  layer: 5  path: 100/108
; 
;  layer: 5  path: 100 points: 0/1
T0
G1 X-0.00 Y1.60 Z1.0 F1200
; 
;  layer: 5  path: 100 points: 1/1
T0
G1 X21.58 Y1.60 Z1.0 E1406.3241 F1200
; 
;  layer: 5  path: 99/108
; 
;  layer: 5  path: 99 points: 0/1
T0
G1 X93.42 Y1.60 Z1.0 F1200
; 
;  layer: 5  path: 99 points: 1/1
T0
G1 X115.00 Y1.60 Z1.0 E1410.1554 F1200
; 
;  layer: 5  path: 98/108
; 
;  layer: 5  path: 98 points: 0/1
T0
G1 X-0.00 Y2.00 Z1.0 F1200
; 
;  layer: 5  path: 98 points: 1/1
T0
G1 X22.66 Y2.00 Z1.0 E1412.9774 F1200
; 
;  layer: 5  path: 97/108
; 
;  layer: 5  path: 97 points: 0/1
T0
G1 X92.34 Y2.00 Z1.0 F1200
; 
;  layer: 5  path: 97 points: 1/1
T0
G1 X115.00 Y2.00 Z1.0 E1416.8046 F1200
; 
;  layer: 5  path: 96/108
; 
;  layer: 5  path: 96 points: 0/1
T0
G1 X-0.00 Y2.40 Z1.0 F1200
; 
;  layer: 5  path: 96 points: 1/1
T0
G1 X23.74 Y2.40 Z1.0 E1419.6181 F1200
; 
;  layer: 5  path: 95/108
; 
;  layer: 5  path: 95 points: 0/1
T0
G1 X91.26 Y2.40 Z1.0 F1200
; 
;  layer: 5  path: 95 points: 1/1
T0
G1 X115.00 Y2.40 Z1.0 E1423.4413 F1200
; 
;  layer: 5  path: 94/108
; 
;  layer: 5  path: 94 points: 0/1
T0
G1 X-0.00 Y2.80 Z1.0 F1200
; 
;  layer: 5  path: 94 points: 1/1
T0
G1 X24.82 Y2.80 Z1.0 E1426.2470 F1200
; 
;  layer: 5  path: 93/108
; 
;  layer: 5  path: 93 points: 0/1
T0
G1 X90.18 Y2.80 Z1.0 F1200
; 
;  layer: 5  path: 93 points: 1/1
T0
G1 X115.00 Y2.80 Z1.0 E1430.0663 F1200
; 
;  layer: 5  path: 92/108
; 
;  layer: 5  path: 92 points: 0/1
T0
G1 X-0.00 Y3.20 Z1.0 F1200
; 
;  layer: 5  path: 92 points: 1/1
T0
G1 X25.89 Y3.20 Z1.0 E1432.8647 F1200
; 
;  layer: 5  path: 91/108
; 
;  layer: 5  path: 91 points: 0/1
T0
G1 X89.11 Y3.20 Z1.0 F1200
; 
;  layer: 5  path: 91 points: 1/1
T0
G1 X115.00 Y3.20 Z1.0 E1436.6803 F1200
; 
;  layer: 5  path: 90/108
; 
;  layer: 5  path: 90 points: 0/1
T0
G1 X0.00 Y3.60 Z1.0 F1200
; 
;  layer: 5  path: 90 points: 1/1
T0
G1 X26.97 Y3.60 Z1.0 E1439.4719 F1200
; 
;  layer: 5  path: 89/108
; 
;  layer: 5  path: 89 points: 0/1
T0
G1 X88.03 Y3.60 Z1.0 F1200
; 
;  layer: 5  path: 89 points: 1/1
T0
G1 X115.00 Y3.60 Z1.0 E1443.2839 F1200
; 
;  layer: 5  path: 88/108
; 
;  layer: 5  path: 88 points: 0/1
T0
G1 X-0.00 Y4.00 Z1.0 F1200
; 
;  layer: 5  path: 88 points: 1/1
T0
G1 X28.05 Y4.00 Z1.0 E1446.0692 F1200
; 
;  layer: 5  path: 87/108
; 
;  layer: 5  path: 87 points: 0/0
T0
G1 X27.00 Y3.80 Z1.0 F1200
; 
;  layer: 5  path: 86/108
; 
;  layer: 5  path: 86 points: 0/1
T0
G1 X86.95 Y4.00 Z1.0 F1200
; 
;  layer: 5  path: 86 points: 1/1
T0
G1 X115.00 Y4.00 Z1.0 E1449.8777 F1200
; 
;  layer: 5  path: 85/108
; 
;  layer: 5  path: 85 points: 0/1
T0
G1 X-0.00 Y4.40 Z1.0 F1200
; 
;  layer: 5  path: 85 points: 1/1
T0
G1 X29.13 Y4.40 Z1.0 E1452.6574 F1200
; 
;  layer: 5  path: 84/108
; 
;  layer: 5  path: 84 points: 0/1
T0
G1 X85.87 Y4.40 Z1.0 F1200
; 
;  layer: 5  path: 84 points: 1/1
T0
G1 X115.00 Y4.40 Z1.0 E1456.4626 F1200
; 
;  layer: 5  path: 83/108
; 
;  layer: 5  path: 83 points: 0/1
T0
G1 X-0.00 Y4.80 Z1.0 F1200
; 
;  layer: 5  path: 83 points: 1/1
T0
G1 X30.21 Y4.80 Z1.0 E1459.2372 F1200
; 
;  layer: 5  path: 82/108
; 
;  layer: 5  path: 82 points: 0/1
T0
G1 X84.79 Y4.80 Z1.0 F1200
; 
;  layer: 5  path: 82 points: 1/1
T0
G1 X115.00 Y4.80 Z1.0 E1463.0392 F1200
; 
;  layer: 5  path: 81/108
; 
;  layer: 5  path: 81 points: 0/1
T0
G1 X-0.00 Y5.20 Z1.0 F1200
; 
;  layer: 5  path: 81 points: 1/1
T0
G1 X31.29 Y5.20 Z1.0 E1465.8093 F1200
; 
;  layer: 5  path: 80/108
; 
;  layer: 5  path: 80 points: 0/0
T0
G1 X-0.00 Y5.93 Z1.0 F1200
; 
;  layer: 5  path: 79/108
; 
;  layer: 5  path: 79 points: 0/1
T0
G1 X83.71 Y5.20 Z1.0 F1200
; 
;  layer: 5  path: 79 points: 1/1
T0
G1 X115.00 Y5.20 Z1.0 E1469.6082 F1200
; 
;  layer: 5  path: 78/108
; 
;  layer: 5  path: 78 points: 0/1
T0
G1 X-0.00 Y5.60 Z1.0 F1200
; 
;  layer: 5  path: 78 points: 1/1
T0
G1 X32.37 Y5.60 Z1.0 E1472.3744 F1200
; 
;  layer: 5  path: 77/108
; 
;  layer: 5  path: 77 points: 0/1
T0
G1 X82.63 Y5.60 Z1.0 F1200
; 
;  layer: 5  path: 77 points: 1/1
T0
G1 X115.00 Y5.60 Z1.0 E1476.1703 F1200
; 
;  layer: 5  path: 76/108
; 
;  layer: 5  path: 76 points: 0/1
T0
G1 X-0.00 Y6.00 Z1.0 F1200
; 
;  layer: 5  path: 76 points: 1/1
T0
G1 X33.45 Y6.00 Z1.0 E1478.9331 F1200
; 
;  layer: 5  path: 75/108
; 
;  layer: 5  path: 75 points: 0/1
T0
G1 X81.55 Y6.00 Z1.0 F1200
; 
;  layer: 5  path: 75 points: 1/1
T0
G1 X115.00 Y6.00 Z1.0 E1482.7262 F1200
; 
;  layer: 5  path: 74/108
; 
;  layer: 5  path: 74 points: 0/1
T0
G1 X-0.00 Y6.40 Z1.0 F1200
; 
;  layer: 5  path: 74 points: 1/1
T0
G1 X34.53 Y6.40 Z1.0 E1485.4862 F1200
; 
;  layer: 5  path: 73/108
; 
;  layer: 5  path: 73 points: 0/1
T0
G1 X80.47 Y6.40 Z1.0 F1200
; 
;  layer: 5  path: 73 points: 1/1
T0
G1 X115.00 Y6.40 Z1.0 E1489.2766 F1200
; 
;  layer: 5  path: 72/108
; 
;  layer: 5  path: 72 points: 0/1
T0
G1 X-0.00 Y6.80 Z1.0 F1200
; 
;  layer: 5  path: 72 points: 1/1
T0
G1 X35.61 Y6.80 Z1.0 E1492.0344 F1200
; 
;  layer: 5  path: 71/108
; 
;  layer: 5  path: 71 points: 0/1
T0
G1 X79.39 Y6.80 Z1.0 F1200
; 
;  layer: 5  path: 71 points: 1/1
T0
G1 X115.00 Y6.80 Z1.0 E1495.8222 F1200
; 
;  layer: 5  path: 70/108
; 
;  layer: 5  path: 70 points: 0/1
T0
G1 X-0.00 Y7.20 Z1.0 F1200
; 
;  layer: 5  path: 70 points: 1/1
T0
G1 X36.68 Y7.20 Z1.0 E1498.5784 F1200
; 
;  layer: 5  path: 69/108
; 
;  layer: 5  path: 69 points: 0/1
T0
G1 X78.32 Y7.20 Z1.0 F1200
; 
;  layer: 5  path: 69 points: 1/1
T0
G1 X115.00 Y7.20 Z1.0 E1502.3637 F1200
; 
;  layer: 5  path: 68/108
; 
;  layer: 5  path: 68 points: 0/1
T0
G1 X-0.00 Y7.60 Z1.0 F1200
; 
;  layer: 5  path: 68 points: 1/1
T0
G1 X37.76 Y7.60 Z1.0 E1505.1188 F1200
; 
;  layer: 5  path: 67/108
; 
;  layer: 5  path: 67 points: 0/1
T0
G1 X77.24 Y7.60 Z1.0 F1200
; 
;  layer: 5  path: 67 points: 1/1
T0
G1 X115.00 Y7.60 Z1.0 E1508.9018 F1200
; 
;  layer: 5  path: 66/108
; 
;  layer: 5  path: 66 points: 0/1
T0
G1 X-0.00 Y8.00 Z1.0 F1200
; 
;  layer: 5  path: 66 points: 1/1
T0
G1 X38.84 Y8.00 Z1.0 E1511.6565 F1200
; 
;  layer: 5  path: 65/108
; 
;  layer: 5  path: 65 points: 0/1
T0
G1 X76.16 Y8.00 Z1.0 F1200
; 
;  layer: 5  path: 65 points: 1/1
T0
G1 X115.00 Y8.00 Z1.0 E1515.4372 F1200
; 
;  layer: 5  path: 64/108
; 
;  layer: 5  path: 64 points: 0/1
T0
G1 X-0.00 Y8.40 Z1.0 F1200
; 
;  layer: 5  path: 64 points: 1/1
T0
G1 X39.92 Y8.40 Z1.0 E1518.1920 F1200
; 
;  layer: 5  path: 63/108
; 
;  layer: 5  path: 63 points: 0/1
T0
G1 X75.08 Y8.40 Z1.0 F1200
; 
;  layer: 5  path: 63 points: 1/1
T0
G1 X115.00 Y8.40 Z1.0 E1521.9707 F1200
; 
;  layer: 5  path: 62/108
; 
;  layer: 5  path: 62 points: 0/1
T0
G1 X-0.00 Y8.80 Z1.0 F1200
; 
;  layer: 5  path: 62 points: 1/1
T0
G1 X41.00 Y8.80 Z1.0 E1524.7262 F1200
; 
;  layer: 5  path: 61/108
; 
;  layer: 5  path: 61 points: 0/1
T0
G1 X74.00 Y8.80 Z1.0 F1200
; 
;  layer: 5  path: 61 points: 1/1
T0
G1 X115.00 Y8.80 Z1.0 E1528.5029 F1200
; 
;  layer: 5  path: 60/108
; 
;  layer: 5  path: 60 points: 0/1
T0
G1 X-0.00 Y9.20 Z1.0 F1200
; 
;  layer: 5  path: 60 points: 1/1
T0
G1 X115.00 Y9.20 Z1.0 E1532.9694 F1200
; 
;  layer: 5  path: 59/108
; 
;  layer: 5  path: 59 points: 0/1
T0
G1 X-0.00 Y9.60 Z1.0 F1200
; 
;  layer: 5  path: 59 points: 1/1
T0
G1 X115.00 Y9.60 Z1.0 E1537.4261 F1200
; 
;  layer: 5  path: 58/108
; 
;  layer: 5  path: 58 points: 0/1
T0
G1 X-0.00 Y10.00 Z1.0 F1200
; 
;  layer: 5  path: 58 points: 1/1
T0
G1 X115.00 Y10.00 Z1.0 E1541.8732 F1200
; 
;  layer: 5  path: 57/108
; 
;  layer: 5  path: 57 points: 0/1
T0
G1 X-0.00 Y10.40 Z1.0 F1200
; 
;  layer: 5  path: 57 points: 1/1
T0
G1 X115.00 Y10.40 Z1.0 E1546.3106 F1200
; 
;  layer: 5  path: 56/108
; 
;  layer: 5  path: 56 points: 0/1
T0
G1 X-0.00 Y10.80 Z1.0 F1200
; 
;  layer: 5  path: 56 points: 1/1
T0
G1 X115.00 Y10.80 Z1.0 E1550.7386 F1200
; 
;  layer: 5  path: 55/108
; 
;  layer: 5  path: 55 points: 0/1
T0
G1 X-0.00 Y11.20 Z1.0 F1200
; 
;  layer: 5  path: 55 points: 1/1
T0
G1 X115.00 Y11.20 Z1.0 E1555.1570 F1200
; 
;  layer: 5  path: 54/108
; 
;  layer: 5  path: 54 points: 0/1
T0
G1 X-0.00 Y11.60 Z1.0 F1200
; 
;  layer: 5  path: 54 points: 1/1
T0
G1 X115.00 Y11.60 Z1.0 E1559.5661 F1200
; 
;  layer: 5  path: 53/108
; 
;  layer: 5  path: 53 points: 0/1
T0
G1 X-0.00 Y12.00 Z1.0 F1200
; 
;  layer: 5  path: 53 points: 1/1
T0
G1 X115.00 Y12.00 Z1.0 E1563.9657 F1200
; 
;  layer: 5  path: 52/108
; 
;  layer: 5  path: 52 points: 0/1
T0
G1 X-0.00 Y12.40 Z1.0 F1200
; 
;  layer: 5  path: 52 points: 1/1
T0
G1 X115.00 Y12.40 Z1.0 E1568.3560 F1200
; 
;  layer: 5  path: 51/108
; 
;  layer: 5  path: 51 points: 0/1
T0
G1 X-0.00 Y12.80 Z1.0 F1200
; 
;  layer: 5  path: 51 points: 1/1
T0
G1 X115.00 Y12.80 Z1.0 E1572.7370 F1200
; 
;  layer: 5  path: 50/108
; 
;  layer: 5  path: 50 points: 0/1
T0
G1 X-0.00 Y13.20 Z1.0 F1200
; 
;  layer: 5  path: 50 points: 1/1
T0
G1 X115.00 Y13.20 Z1.0 E1577.1088 F1200
; 
;  layer: 5  path: 49/108
; 
;  layer: 5  path: 49 points: 0/1
T0
G1 X-0.00 Y13.60 Z1.0 F1200
; 
;  layer: 5  path: 49 points: 1/1
T0
G1 X115.00 Y13.60 Z1.0 E1581.4715 F1200
; 
;  layer: 5  path: 48/108
; 
;  layer: 5  path: 48 points: 0/1
T0
G1 X-0.00 Y14.00 Z1.0 F1200
; 
;  layer: 5  path: 48 points: 1/1
T0
G1 X115.00 Y14.00 Z1.0 E1585.8250 F1200
; 
;  layer: 5  path: 47/108
; 
;  layer: 5  path: 47 points: 0/1
T0
G1 X-0.00 Y14.40 Z1.0 F1200
; 
;  layer: 5  path: 47 points: 1/1
T0
G1 X115.00 Y14.40 Z1.0 E1590.1695 F1200
; 
;  layer: 5  path: 46/108
; 
;  layer: 5  path: 46 points: 0/1
T0
G1 X-0.00 Y14.80 Z1.0 F1200
; 
;  layer: 5  path: 46 points: 1/1
T0
G1 X115.00 Y14.80 Z1.0 E1594.5050 F1200
; 
;  layer: 5  path: 45/108
; 
;  layer: 5  path: 45 points: 0/1
T0
G1 X-0.00 Y15.20 Z1.0 F1200
; 
;  layer: 5  path: 45 points: 1/1
T0
G1 X41.00 Y15.20 Z1.0 E1597.0101 F1200
; 
;  layer: 5  path: 44/108
; 
;  layer: 5  path: 44 points: 0/1
T0
G1 X74.00 Y15.20 Z1.0 F1200
; 
;  layer: 5  path: 44 points: 1/1
T0
G1 X115.00 Y15.20 Z1.0 E1600.6082 F1200
; 
;  layer: 5  path: 43/108
; 
;  layer: 5  path: 43 points: 0/1
T0
G1 X-0.00 Y15.60 Z1.0 F1200
; 
;  layer: 5  path: 43 points: 1/1
T0
G1 X39.92 Y15.60 Z1.0 E1603.0795 F1200
; 
;  layer: 5  path: 42/108
; 
;  layer: 5  path: 42 points: 0/1
T0
G1 X75.08 Y15.60 Z1.0 F1200
; 
;  layer: 5  path: 42 points: 1/1
T0
G1 X115.00 Y15.60 Z1.0 E1606.6567 F1200
; 
;  layer: 5  path: 41/108
; 
;  layer: 5  path: 41 points: 0/1
T0
G1 X-0.00 Y16.00 Z1.0 F1200
; 
;  layer: 5  path: 41 points: 1/1
T0
G1 X38.84 Y16.00 Z1.0 E1609.0943 F1200
; 
;  layer: 5  path: 40/108
; 
;  layer: 5  path: 40 points: 0/1
T0
G1 X76.16 Y16.00 Z1.0 F1200
; 
;  layer: 5  path: 40 points: 1/1
T0
G1 X115.00 Y16.00 Z1.0 E1612.6506 F1200
; 
;  layer: 5  path: 39/108
; 
;  layer: 5  path: 39 points: 0/1
T0
G1 X-0.00 Y16.40 Z1.0 F1200
; 
;  layer: 5  path: 39 points: 1/1
T0
G1 X37.76 Y16.40 Z1.0 E1615.0547 F1200
; 
;  layer: 5  path: 38/108
; 
;  layer: 5  path: 38 points: 0/1
T0
G1 X77.24 Y16.40 Z1.0 F1200
; 
;  layer: 5  path: 38 points: 1/1
T0
G1 X115.00 Y16.40 Z1.0 E1618.5901 F1200
; 
;  layer: 5  path: 37/108
; 
;  layer: 5  path: 37 points: 0/1
T0
G1 X-0.00 Y16.80 Z1.0 F1200
; 
;  layer: 5  path: 37 points: 1/1
T0
G1 X36.68 Y16.80 Z1.0 E1620.9610 F1200
; 
;  layer: 5  path: 36/108
; 
;  layer: 5  path: 36 points: 0/1
T0
G1 X78.32 Y16.80 Z1.0 F1200
; 
;  layer: 5  path: 36 points: 1/1
T0
G1 X115.00 Y16.80 Z1.0 E1624.4755 F1200
; 
;  layer: 5  path: 35/108
; 
;  layer: 5  path: 35 points: 0/1
T0
G1 X-0.00 Y17.20 Z1.0 F1200
; 
;  layer: 5  path: 35 points: 1/1
T0
G1 X35.61 Y17.20 Z1.0 E1626.8133 F1200
; 
;  layer: 5  path: 34/108
; 
;  layer: 5  path: 34 points: 0/1
T0
G1 X79.39 Y17.20 Z1.0 F1200
; 
;  layer: 5  path: 34 points: 1/1
T0
G1 X115.00 Y17.20 Z1.0 E1630.3071 F1200
; 
;  layer: 5  path: 33/108
; 
;  layer: 5  path: 33 points: 0/1
T0
G1 X-0.00 Y17.60 Z1.0 F1200
; 
;  layer: 5  path: 33 points: 1/1
T0
G1 X34.53 Y17.60 Z1.0 E1632.6120 F1200
; 
;  layer: 5  path: 32/108
; 
;  layer: 5  path: 32 points: 0/1
T0
G1 X80.47 Y17.60 Z1.0 F1200
; 
;  layer: 5  path: 32 points: 1/1
T0
G1 X115.00 Y17.60 Z1.0 E1636.0850 F1200
; 
;  layer: 5  path: 31/108
; 
;  layer: 5  path: 31 points: 0/1
T0
G1 X-0.00 Y18.00 Z1.0 F1200
; 
;  layer: 5  path: 31 points: 1/1
T0
G1 X33.45 Y18.00 Z1.0 E1638.3573 F1200
; 
;  layer: 5  path: 30/108
; 
;  layer: 5  path: 30 points: 0/1
T0
G1 X81.55 Y18.00 Z1.0 F1200
; 
;  layer: 5  path: 30 points: 1/1
T0
G1 X115.00 Y18.00 Z1.0 E1641.8095 F1200
; 
;  layer: 5  path: 29/108
; 
;  layer: 5  path: 29 points: 0/1
T0
G1 X-0.00 Y18.40 Z1.0 F1200
; 
;  layer: 5  path: 29 points: 1/1
T0
G1 X32.37 Y18.40 Z1.0 E1644.0494 F1200
; 
;  layer: 5  path: 28/108
; 
;  layer: 5  path: 28 points: 0/1
T0
G1 X82.63 Y18.40 Z1.0 F1200
; 
;  layer: 5  path: 28 points: 1/1
T0
G1 X115.00 Y18.40 Z1.0 E1647.4808 F1200
; 
;  layer: 5  path: 27/108
; 
;  layer: 5  path: 27 points: 0/1
T0
G1 X-0.00 Y18.80 Z1.0 F1200
; 
;  layer: 5  path: 27 points: 1/1
T0
G1 X31.29 Y18.80 Z1.0 E1649.6886 F1200
; 
;  layer: 5  path: 26/108
; 
;  layer: 5  path: 26 points: 0/1
T0
G1 X83.71 Y18.80 Z1.0 F1200
; 
;  layer: 5  path: 26 points: 1/1
T0
G1 X115.00 Y18.80 Z1.0 E1653.0993 F1200
; 
;  layer: 5  path: 25/108
; 
;  layer: 5  path: 25 points: 0/1
T0
G1 X-0.00 Y19.20 Z1.0 F1200
; 
;  layer: 5  path: 25 points: 1/1
T0
G1 X30.21 Y19.20 Z1.0 E1655.2752 F1200
; 
;  layer: 5  path: 24/108
; 
;  layer: 5  path: 24 points: 0/1
T0
G1 X84.79 Y19.20 Z1.0 F1200
; 
;  layer: 5  path: 24 points: 1/1
T0
G1 X115.00 Y19.20 Z1.0 E1658.6651 F1200
; 
;  layer: 5  path: 23/108
; 
;  layer: 5  path: 23 points: 0/1
T0
G1 X-0.00 Y19.60 Z1.0 F1200
; 
;  layer: 5  path: 23 points: 1/1
T0
G1 X29.13 Y19.60 Z1.0 E1660.8095 F1200
; 
;  layer: 5  path: 22/108
; 
;  layer: 5  path: 22 points: 0/1
T0
G1 X85.87 Y19.60 Z1.0 F1200
; 
;  layer: 5  path: 22 points: 1/1
T0
G1 X115.00 Y19.60 Z1.0 E1664.1786 F1200
; 
;  layer: 5  path: 21/108
; 
;  layer: 5  path: 21 points: 0/1
T0
G1 X-0.00 Y20.00 Z1.0 F1200
; 
;  layer: 5  path: 21 points: 1/1
T0
G1 X28.05 Y20.00 Z1.0 E1666.2917 F1200
; 
;  layer: 5  path: 20/108
; 
;  layer: 5  path: 20 points: 0/1
T0
G1 X86.95 Y20.00 Z1.0 F1200
; 
;  layer: 5  path: 20 points: 1/1
T0
G1 X115.00 Y20.00 Z1.0 E1669.6401 F1200
; 
;  layer: 5  path: 19/108
; 
;  layer: 5  path: 19 points: 0/1
T0
G1 X-0.00 Y20.40 Z1.0 F1200
; 
;  layer: 5  path: 19 points: 1/1
T0
G1 X26.97 Y20.40 Z1.0 E1671.7222 F1200
; 
;  layer: 5  path: 18/108
; 
;  layer: 5  path: 18 points: 0/1
T0
G1 X88.03 Y20.40 Z1.0 F1200
; 
;  layer: 5  path: 18 points: 1/1
T0
G1 X115.00 Y20.40 Z1.0 E1675.0499 F1200
; 
;  layer: 5  path: 17/108
; 
;  layer: 5  path: 17 points: 0/1
T0
G1 X-0.00 Y20.80 Z1.0 F1200
; 
;  layer: 5  path: 17 points: 1/1
T0
G1 X25.89 Y20.80 Z1.0 E1677.1013 F1200
; 
;  layer: 5  path: 16/108
; 
;  layer: 5  path: 16 points: 0/1
T0
G1 X89.11 Y20.80 Z1.0 F1200
; 
;  layer: 5  path: 16 points: 1/1
T0
G1 X115.00 Y20.80 Z1.0 E1680.4083 F1200
; 
;  layer: 5  path: 15/108
; 
;  layer: 5  path: 15 points: 0/1
T0
G1 X-0.00 Y21.20 Z1.0 F1200
; 
;  layer: 5  path: 15 points: 1/1
T0
G1 X24.82 Y21.20 Z1.0 E1682.4294 F1200
; 
;  layer: 5  path: 14/108
; 
;  layer: 5  path: 14 points: 0/1
T0
G1 X90.18 Y21.20 Z1.0 F1200
; 
;  layer: 5  path: 14 points: 1/1
T0
G1 X115.00 Y21.20 Z1.0 E1685.7159 F1200
; 
;  layer: 5  path: 13/108
; 
;  layer: 5  path: 13 points: 0/1
T0
G1 X-0.00 Y21.60 Z1.0 F1200
; 
;  layer: 5  path: 13 points: 1/1
T0
G1 X23.74 Y21.60 Z1.0 E1687.7070 F1200
; 
;  layer: 5  path: 12/108
; 
;  layer: 5  path: 12 points: 0/1
T0
G1 X91.26 Y21.60 Z1.0 F1200
; 
;  layer: 5  path: 12 points: 1/1
T0
G1 X115.00 Y21.60 Z1.0 E1690.9728 F1200
; 
;  layer: 5  path: 11/108
; 
;  layer: 5  path: 11 points: 0/1
T0
G1 X-0.00 Y22.00 Z1.0 F1200
; 
;  layer: 5  path: 11 points: 1/1
T0
G1 X22.66 Y22.00 Z1.0 E1692.9343 F1200
; 
;  layer: 5  path: 10/108
; 
;  layer: 5  path: 10 points: 0/1
T0
G1 X92.34 Y22.00 Z1.0 F1200
; 
;  layer: 5  path: 10 points: 1/1
T0
G1 X115.00 Y22.00 Z1.0 E1696.1794 F1200
; 
;  layer: 5  path: 9/108
; 
;  layer: 5  path: 9 points: 0/1
T0
G1 X-0.00 Y22.40 Z1.0 F1200
; 
;  layer: 5  path: 9 points: 1/1
T0
G1 X21.58 Y22.40 Z1.0 E1698.1117 F1200
; 
;  layer: 5  path: 8/108
; 
;  layer: 5  path: 8 points: 0/1
T0
G1 X93.42 Y22.40 Z1.0 F1200
; 
;  layer: 5  path: 8 points: 1/1
T0
G1 X115.00 Y22.40 Z1.0 E1701.3362 F1200
; 
;  layer: 5  path: 7/108
; 
;  layer: 5  path: 7 points: 0/1
T0
G1 X-0.00 Y22.80 Z1.0 F1200
; 
;  layer: 5  path: 7 points: 1/1
T0
G1 X20.50 Y22.80 Z1.0 E1703.2396 F1200
; 
;  layer: 5  path: 6/108
; 
;  layer: 5  path: 6 points: 0/1
T0
G1 X94.50 Y22.80 Z1.0 F1200
; 
;  layer: 5  path: 6 points: 1/1
T0
G1 X115.00 Y22.80 Z1.0 E1706.4435 F1200
; 
;  layer: 5  path: 5/108
; 
;  layer: 5  path: 5 points: 0/1
T0
G1 X-0.00 Y23.20 Z1.0 F1200
; 
;  layer: 5  path: 5 points: 1/1
T0
G1 X19.42 Y23.20 Z1.0 E1708.3185 F1200
; 
;  layer: 5  path: 4/108
; 
;  layer: 5  path: 4 points: 0/1
T0
G1 X95.58 Y23.20 Z1.0 F1200
; 
;  layer: 5  path: 4 points: 1/1
T0
G1 X115.00 Y23.20 Z1.0 E1711.5018 F1200
; 
;  layer: 5  path: 3/108
; 
;  layer: 5  path: 3 points: 0/1
T0
G1 X-0.00 Y23.60 Z1.0 F1200
; 
;  layer: 5  path: 3 points: 1/1
T0
G1 X18.34 Y23.60 Z1.0 E1713.3489 F1200
; 
;  layer: 5  path: 2/108
; 
;  layer: 5  path: 2 points: 0/1
T0
G1 X96.66 Y23.60 Z1.0 F1200
; 
;  layer: 5  path: 2 points: 1/1
T0
G1 X115.00 Y23.60 Z1.0 E1716.5116 F1200
; 
